X:1
T:Partita IV (A = 415 Hz)
T:BWV 828
T:J. S. Bach
%%score { ( 1 2 3 ) | ( 4 5 6 ) }
L:1/8
Q:1/4=72
M:2/2
K:D
V:1 treble nm="Harp"
V:2 treble 
V:3 treble 
V:4 bass 
V:5 bass 
V:6 bass 
V:1
"^Adagio""^Ouverture" f4- f>f g/4f/4ga/ |{f} e4 e4 | d2- d/4G/4A/4B/4=c/4d/4e/4f/4 g4- | %3
 g>ga>b d/4c/4d/4c/4d/4c/4e<!arpeggio!ag/ |{g} f2 ed f3 f | f2- f/b/4a/4g/4f/4e/4^d/4 e3 e | %6
 (9:8:4e3/2d/4c/4d/4 e/4d/4e/4d/4e/4d/4c/ d4- | (9:8:4d3/2d/4c/4B/4 c/4B/4cd/ e>f^g>a | %8
 ^g/4f/4g/4f/4g/4f/4g/4f/4 g/4f/4f/4g/4a/4g/4f/4e/4 b4- | %9
 (5:4:3b3/4B/4c/4(5:4:5d/4c/4B/4A/4^G/4 A/4B/4c/4d/4e/4f/4^g/ (9:8:4a3/2d/4c/4B/4 c/e/=g- | %10
 (9:8:4g3/2c/4d/4e/4 f/4g/4f/4e/4d/4c/4B/4A/4 ^G>B e2- | %11
 (9:8:4e3/2f/4^g/4a/4 (9:8:9a/4g/4a/4g/4a/4g/4f/4g/4a/4 c/4B/4c/4B/4c/4B/4c/4B/4 c/4B/4c/4B/4A | %12
 (9:8:4A3/2c/4B/4A/4g>e f4- | (9:8:4f3/2f/4e/4d/4 e2- e2- (9:8:4e3/2e/4d/4c/4 | %14
 d4- (9:8:4d3/2=f/4e/4d/4(9:8:4b3/2^g/4^f/4e/4 | =c'4- (9:8:4c'3/2b/4a/4^g/4 a2- | %16
 (9:8:4a3/2b/4a/4^g/4 a/fg/ a/4g/4f/4g/4a/4g/4a/4g/4 a/4g/4a/4g/4 a | a4- a z z2 | %18
 f4- f>f g/4f/4ga/ |{f} e4 e4 | d2- d/4G/4A/4B/4=c/4d/4e/4f/4 g4- | %21
 g>ga>b d/4c/4d/4c/4d/4c/4e<!arpeggio!ag/ |{g} f2 ed f3 f | f2- f/b/4a/4g/4f/4e/4^d/4 e3 e | %24
 (9:8:4e3/2d/4c/4d/4 e/4d/4e/4d/4e/4d/4c/ d4- | (9:8:4d3/2d/4c/4B/4 c/4B/4cd/ e>f^g>a | %26
 ^g/4f/4g/4f/4g/4f/4g/4f/4 g/4f/4f/4g/4a/4g/4f/4e/4 b4- | %27
 (5:4:3b3/4B/4c/4(5:4:5d/4c/4B/4A/4^G/4 A/4B/4c/4d/4e/4f/4^g/ (9:8:4a3/2d/4c/4B/4 c/e/=g- | %28
 (9:8:4g3/2c/4d/4e/4 f/4g/4f/4e/4d/4c/4B/4A/4 ^G>B e2- | %29
 (9:8:4e3/2f/4^g/4a/4 (9:8:9a/4g/4a/4g/4a/4g/4f/4g/4a/4 c/4B/4c/4B/4c/4B/4c/4B/4 c/4B/4c/4B/4A | %30
 (9:8:4A3/2c/4B/4A/4g>e f4- | (9:8:4f3/2f/4e/4d/4 e2- e2- (9:8:4e3/2e/4d/4c/4 | %32
 d4- (9:8:4d3/2=f/4e/4d/4(9:8:4b3/2^g/4^f/4e/4 | =c'4- (9:8:4c'3/2b/4a/4^g/4 a2- | %34
 (9:8:4a3/2b/4a/4^g/4 a/fg/ a/4g/4f/4g/4a/4g/4a/4g/4 a/4g/4a/4g/4 a | %35
[M:9/8][Q:1/4=132]"^Allegro" a2 z z3 z3 | ce/d/c/B/ eAc d^GB | z fa beg adf | ga/g/f/e/ adf g^ce | %39
 f3- f/d/e/f/^g/a/ b/a/g/f/e/d/- | d3 z/ c/d/e/f/^g/ a/g/f/e/d/c/- | %41
 c3 B3 c/d/e/4d/4e/4d/4e/4d/4c/4d/4 | e3- e d2 d c2- | cBd- d c2- c B2- | BAc F3 G3 | %45
 A3 z/ d/e/d/c/d/- d/d/e/d/c/d/ | c3 d3 e3 | fg/f/e/d/ =c'/b/a/c'/b/a/ ^g/b/a/g/a/b/ | %48
 e e2- e d2- d c2- | cFB- BEA A/4^G/4A/4G/4A/4G/4A/4G/4 A | %50
 [AA]/B/c/d/e/c/ A3 A/4^G/4A/4G/4A/4G/4A/4G/4 F/G/ |{D} C2 z z3 z3 | %52
 d/e/f/g/a/f/ d3- d/4c/4d/4c/4d/4c/4d/4c/4B/c/ | dA=c B/^c/dB Acd | GA/G/F/G/ A/c/dA Gcd | %55
{G} F2 z z3 z3 | G/F/Gd- dcB- BAG | F^Ec- cBA- AGF | E^DB- BAG- GFE | cEA dFA eGA | %60
 f/A/d/f/d/A/ z/ B/d/f/d/B/ z/ c/e/f/e/c/ | dBd gBd a=cd | %62
 b/d/g/b/g/d/ z/ e/g/b/g/e/ z/ f/a/b/a/f/ | g/f/e/^d/e/g/ A/f/e/d/e/g/ G/f/e/d/e/g/ | %64
 =c/f/ a2- ag/f/e/d/ c/^d/ f2- | fGB =cFA BEG | AB/A/G/F/ BEG A^DF | %67
 G/E/F/G/A/B/ =c/A/B/^c/^d/e/ f/d/e/f/g/a/ | b/a/g/f/e/^d/ ef/g/a/f/{e} d2 e | %69
 e/d/=c/B/A/G/ z3 z2 g- | g6- geg | f/e/d/e/f/g/ a/g/f/g/a/b/ =c'3 | beg adf gce | %73
 fg/f/e/d/ gce fBd | ef/e/d/c/ fBd e^Ac | de/d/c/B/ ef/e/d/c/ fe/d/c/B/ | %76
 ^A/^G/F/G/A/B/ c/B/A/B/c/d/ e3- | e/f/e/f/e/f/ d/e/d/e/d/e/ c f2- | f/B/c/d/e/f/ gce fBd | %79
 ef/e/d/c/ fBd e^Ac | d/c/B/c/d/e/ f/e/^d/e/f/g/ a3- | a/b/a/b/a/b/ g/a/g/a/g/a/ f b2- | %82
 b/e/f/g/a/b/ =c'fa beg | ab/a/g/f/ [bb]eg a^df | g3- gf/e/d/c/ fe/d/c/B/ | e2 c f2 d e3- | %86
 edc B2 c FB^A | BFB d3- d/D/F/B/d/c/ | d/^G/A/B/c/d/ eAc dGB | cEA =c3- c/=C/E/A/c/B/ | %90
 =c/F/G/A/B/c/ dGB cFA | B=c/B/A/G/ e3- ef/e/d/^c/ | a3- ab/a/g/f/ ga/g/f/e/ | %93
 fg/f/e/d/ ga/g/f/e/ ag/f/e/d/ | c/d/c/B/A/G/ z/ g/f/e/d/=c/ z/ e/d/c/B/A/ | %95
 z/ =c/B/A/G/F/ z/ f/e/d/^c/B/ z/ d/c/B/A/G/ | z/ c/B/A/G/F/ z/ e/d/c/B/A/ z/ =c/B/A/G/F/ | %97
 z/ A/G/F/E/D/ z/ d/c/B/A/G/ z/ B/A/G/F/E/ | F/A,/B,/C/D/E/ F/D/E/F/G/A/ B3- | %99
 BD/E/F/^G/ A/G/A/B/c/d/ e3- | eG/A/B/c/ d/B/c/d/e/f/ g3- | gB/=c/d/e/ f/e/f/g/a/b/ =c'3- | %102
 c'e/f/g/a/ bag- gfe | dc a2 g f2 ed | =cBg- gfe- ed^c | BAe- edc- cBA | G=F=f- fed- d=cB | %107
 A^Gb- ba^g- gfe | d/B/c/d/e/c/ A3 A/4G/4A/4G/4A/4G/4A/4G/4 F/G/ | %109
 F/A/B/c/d/B/ G3 G/4F/4G/4F/4G/4F/4G/4F/4 E/F/ | E/^G/A/B/c/A/ F3 F/4E/4F/4E/4F/4E/4F/4E/4 D/E/ | %111
 D/F/^G/A/B/G/ E3 E/4D/4E/4D/4E/4D/4E/4D/4 C/D/ | C/E/D/C/B,/A,/ z/ A/G/F/E/D/ z/ B/A/G/F/E/ | %113
 F/A/G/F/E/D/ z/ d/c/B/A/G/ z/ e/d/c/B/A/ | ^G/B/A/G/F/E/ z/ d/c/B/A/G/ z/ f/e/d/c/B/ | %115
 c2 z z/ c/d/e/f/g/ a3- | agf g z z g3- | gfe z3 z3 | G3- GeG F/G/A/4G/4A/4G/4A/4G/4F/4G/4 | %119
 A3- A G2 G F2- | FEG- G F2- F E2- | EDF B,3 C3 | D3 z/ G/A/G/F/G/- G/G/A/G/F/G/ | F3 G3 A3 | %124
 B=c/B/A/G/ =f/e/d/f/e/d/ ^c/e/d/c/d/e/ | A a2 a g2 g f2- | fBe- eAd d/4c/4d/4c/4d/4c/4d/4c/4 d | %127
 !fermata![FAd]8 z |[M:4/4]"^Allemande"[Q:1/4=90] z4 z2 z F | [A,DF-]4 F/E/F/A/ G/F/E/D/ | %130
 D<A- A/G/F/E/ F/A/B/=c/- c/A/G/F/- | F/=c/B/A/ B/G/e- e/d/^c/B/ A/G/4F/4G/e/ | %132
 G2 G/4F/4G/4F/4G/4F/4G/4F/4 G/4F/4A/B/c/ d/c/B/A/ | A f3- f/g/f/e/ f/d/^A- | %134
 A/c/B/^A/ A<B- B/d/c/B/ c/d/e/f/ | (3g/f/e/b- b/a/g/f/ (3g/f/e/g- g/f/e/d/ | %136
 (3e/d/c/e- e/d/c/B/ (3c/B/A/f- f/e/d/c/ | d/B/^A/B/ B<d- d/e/4f/4e/d/ d/e/4f/4e/d/ | %138
 d/^g/4a/4b- b/a/g/f/ (3e/d/c/d- (3d/c/B/(3f/e/d/ | c/A/^G/A/ A<c- c/d/4e/4d/c/ c/d/4e/4d/c/ | %140
 =c/f/4^g/4a- a/g/f/e/ (3^d/^c/B/=c- (3c/B/A/(3c/B/A/ | %141
 A<^G- (9:8:4G3/2^d/4e/4f/4 e/d/d/e/ e/^g/a/=c'/ | %142
 e/4=f/4g/4f/4e/4f/4e/4d/4- (9:8:4d3/2c/4d/4e/4 d/c/c/d/ d/e/^g/b/ | %143
 d/4e/4=f/4e/4d/4e/4d/4=c/4- (9:8:4c3/2B/4c/4d/4 c/B/B/c/ c/^f/4^g/4a/c/- | %144
 (3c/B/A/(3B/A/^G/ (3=f/e/d/(3e/d/=c/ (3a/^g/^f/(3g/f/e/ (3=c'/b/a/(3b/a/=g/ | %145
 ^ga/4g/4f/4e/4 ^d/a/A- A/B/c- c/=d/4e/4d/4c/4B/ | A4- A2- A/F/G- | %147
 G/4E/4F/4G/4F/D/- D/D/4E/4F/4^G/4A/- A/4F/4G/4A/4G/E/- E/E/4F/4G/4A/4B/- | %148
 B/4^G/4A/4B/4A/F/- F/F/4G/4A/4B/4c/- c/4A/4B/4c/4B/G/- G/G/4A/4B/4c/4d/- | %149
 (3d/c/B/(3c/B/A/ (3d/=c/B/(3c/B/A/ c/^DE/- (3E/A/B/(3c/B/A/ | %150
 =f/^GA/- (3A/d/e/(3f/e/d/ (3^g/d/e/(3f/e/d/ (3a/d/e/(3f/e/d/ | %151
 b/4=f/4e/4d/4e/B/ =c/^G/A/^D/- D/4E/4F/4G/4A/4B/4^c/4d/4- d/B/G/A/ | A2- A/^GA/- A3 F | %153
 [A,DF-]4 F/E/F/A/ G/F/E/D/ | D<A- A/G/F/E/ F/A/B/=c/- c/A/G/F/- | %155
 F/=c/B/A/ B/G/e- e/d/^c/B/ A/G/4F/4G/e/ | G2 G/4F/4G/4F/4G/4F/4G/4F/4 G/4F/4A/B/c/ d/c/B/A/ | %157
 A f3- f/g/f/e/ f/d/^A- | A/c/B/^A/ A<B- B/d/c/B/ c/d/e/f/ | %159
 (3g/f/e/b- b/a/g/f/ (3g/f/e/g- g/f/e/d/ | (3e/d/c/e- e/d/c/B/ (3c/B/A/f- f/e/d/c/ | %161
 d/B/^A/B/ B<d- d/e/4f/4e/d/ d/e/4f/4e/d/ | d/^g/4a/4b- b/a/g/f/ (3e/d/c/d- (3d/c/B/(3f/e/d/ | %163
 c/A/^G/A/ A<c- c/d/4e/4d/c/ c/d/4e/4d/c/ | =c/f/4^g/4a- a/g/f/e/ (3^d/^c/B/=c- (3c/B/A/(3c/B/A/ | %165
 A<^G- (9:8:4G3/2^d/4e/4f/4 e/d/d/e/ e/^g/a/=c'/ | %166
 e/4=f/4g/4f/4e/4f/4e/4d/4- (9:8:4d3/2c/4d/4e/4 d/c/c/d/ d/e/^g/b/ | %167
 d/4e/4=f/4e/4d/4e/4d/4=c/4- (9:8:4c3/2B/4c/4d/4 c/B/B/c/ c/^f/4^g/4a/c/- | %168
 (3c/B/A/(3B/A/^G/ (3=f/e/d/(3e/d/=c/ (3a/^g/^f/(3g/f/e/ (3=c'/b/a/(3b/a/=g/ | %169
 ^ga/4g/4f/4e/4 ^d/a/A- A/B/c- c/=d/4e/4d/4c/4B/ | A4- A2- A/F/G- | %171
 G/4E/4F/4G/4F/D/- D/D/4E/4F/4^G/4A/- A/4F/4G/4A/4G/E/- E/E/4F/4G/4A/4B/- | %172
 B/4^G/4A/4B/4A/F/- F/F/4G/4A/4B/4c/- c/4A/4B/4c/4B/G/- G/G/4A/4B/4c/4d/- | %173
 (3d/c/B/(3c/B/A/ (3d/=c/B/(3c/B/A/ c/^DE/- (3E/A/B/(3c/B/A/ | %174
 =f/^GA/- (3A/d/e/(3f/e/d/ (3^g/d/e/(3f/e/d/ (3a/d/e/(3f/e/d/ | %175
 b/4=f/4e/4d/4e/B/ =c/^G/A/^D/- D/4E/4F/4G/4A/4B/4^c/4d/4- d/B/G/A/ | A2- A/^GA/- A3 e | %177
 [Ace-]4 e/e/f/g/ f/e/d/c/ | [cea-]2 a/g/f/e/ d/B/c/e/- e/d/c/B/- | %179
 B/A/c/d/- d/c/4B/4f/g/- g/e/4f/4g/4a/4b/- b/4a/4g/4f/4g/e/ | %180
 e2 f/4e/4f3/2- f/f/g/4f/4e/4f/4 a/B/=c- | %181
 c/=c/d/4c/4B/4c/4 f/^G/A- A/B/4^c/4^d/4e/4f/- f/d/4e/4f/4g/4a/- | %182
 a/f/g/4f/4g/- g/f/4g/4a/4g/4f/ g/4f/4e/b/a/- a/g/4f/4e/^d/ | %183
 e/4^d/4c/4B/4a/g/- g/f/4e/4=d/c/ (3d/c/B/g/f/- f/e/4d/4c/4d/4e/ | %184
 B^A- (9:8:4A3/2^e/4f/4^g/4 f/e/e/f/ f/^a/a/b/ | %185
 f/4g/4a/4g/4f/4g/4f/4e/4- (9:8:4e3/2^d/4e/4f/4 e/d/d/e/ e/^a/a/b/ | %186
 e/4f/4g/4f/4e/4f/4e/4d/4 (9:8:4d3/2c/4d/4e/4 d/c/c/d/ d/^g/4^a/4b/d/- | %187
 (3d/c/B/(3c/B/^A/ A<g- (3g/f/e/(3f/e/^d/ d<=c'- | %188
 c'/4a/4b/4=c'/4b- (3b/a/g/(3a/g/f/ g/4f/4e/4^d/4e- (3e/=d/=c/(3d/c/B/ | %189
 =c/GA/4B/4 (3c/d/e/(3=f/e/d/ c/GA/4B/4 (3c/d/e/(3f/e/d/ | %190
 c/^Af/4e/4 f/b/-b/4f/4e/4d/4 e/ce/4d/4 e/^a/-a/4e/4d/4c/4 | %191
 d/Bb/4a/4 g/g/4f/4e/e/4d/4 c/4g/4f/4e/4f/B/ (6:7:6d/4c/4d/4c/4d/4c/4B/4 | B6 z/ D/F/G/ | %193
 A2 z2 A/F/D/E/ F/G/A/B/ | =c/4B/4A/B- B2- B/A/B/c/ B/A/B/^d/- | %195
 d/e/A/^d/- d/e/G/d/- d/e/F/e/- e/d/4e/4f/A/- | (3A/F/G/(3A/G/F/ F<G- G/A/4B/4A/G/ G/A/4B/4A/G/ | %197
 G/c/4d/4e- e/d/c/B/ (3A/G/F/G- (3G/F/E/(3B/A/G/ | F/D/C/D/ D<F- F/G/4A/4G/F/ F/G/4A/4G/F/ | %199
 =F/B/4c/4d- d/c/B/A/ (3^G/^F/E/=F- (3F/E/D/(3F/E/D/ | %200
 (3C/B,/A,/G- (3G/=F/E/(3F/E/D/ (3E/D/C/_B- (3B/A/G/(3A/G/F/ | %201
 (3G/=F/E/d (3d/c/B/(3c/B/A/ (3g/f/e/(3f/e/d/ a<=c- | %202
 c/4A/4B/4=c/4B/G/- G/G/4A/4B/4^c/4d/- d/4B/4c/4d/4c/A/- A/A/4B/4c/4d/4e/- | %203
 e/4c/4d/4e/4d/B/- B/-B/4c/4d/4e/4f/- f/4d/4e/4f/4e/c/- c/c/4d/4e/4f/4g/- | %204
 (3g/f/e/(3f/e/d/ (3g/=f/e/(3f/e/d/ f/^GA/- (3A/d/e/(3f/e/d/ | %205
 ^a/cd/- (3d/G/A/(3_B/A/G/ (3c/G/A/(3B/A/G/ (3d/G/A/(3B/A/G/ | %206
 e/4_B/4A/4G/4A/E/ =F/C/D/^G,/- G,/4A,/4B,/4C/4D/4E/4^F/4G/4- (3G/F/E/(3F/E/D/ | %207
 D/4F/4E/4D/4=c- c/B/4A/4B/e/- e/4d/4^c/4B/4A/4d/4^G/- (3G/A/D/(3=G/F/E/ | D2- D/CD/- D3 e | %209
 [Ace-]4 e/e/f/g/ f/e/d/c/ | [cea-]2 a/g/f/e/ d/B/c/e/- e/d/c/B/- | %211
 B/A/c/d/- d/c/4B/4f/g/- g/e/4f/4g/4a/4b/- b/4a/4g/4f/4g/e/ | %212
 e2 f/4e/4f3/2- f/f/g/4f/4e/4f/4 a/B/=c- | %213
 c/=c/d/4c/4B/4c/4 f/^G/A- A/B/4^c/4^d/4e/4f/- f/d/4e/4f/4g/4a/- | %214
 a/f/g/4f/4g/- g/f/4g/4a/4g/4f/ g/4f/4e/b/a/- a/g/4f/4e/^d/ | %215
 e/4^d/4c/4B/4a/g/- g/f/4e/4=d/c/ (3d/c/B/g/f/- f/e/4d/4c/4d/4e/ | %216
 B^A- (9:8:4A3/2^e/4f/4^g/4 f/e/e/f/ f/^a/a/b/ | %217
 f/4g/4a/4g/4f/4g/4f/4e/4- (9:8:4e3/2^d/4e/4f/4 e/d/d/e/ e/^a/a/b/ | %218
 e/4f/4g/4f/4e/4f/4e/4d/4 (9:8:4d3/2c/4d/4e/4 d/c/c/d/ d/^g/4^a/4b/d/- | %219
 (3d/c/B/(3c/B/^A/ A<g- (3g/f/e/(3f/e/^d/ d<=c'- | %220
 c'/4a/4b/4=c'/4b- (3b/a/g/(3a/g/f/ g/4f/4e/4^d/4e- (3e/=d/=c/(3d/c/B/ | %221
 =c/GA/4B/4 (3c/d/e/(3=f/e/d/ c/GA/4B/4 (3c/d/e/(3f/e/d/ | %222
 c/^Af/4e/4 f/b/-b/4f/4e/4d/4 e/ce/4d/4 e/^a/-a/4e/4d/4c/4 | %223
 d/Bb/4a/4 g/g/4f/4e/e/4d/4 c/4g/4f/4e/4f/B/ (6:7:6d/4c/4d/4c/4d/4c/4B/4 | B6 z/ D/F/G/ | %225
 A2 z2 A/F/D/E/ F/G/A/B/ | =c/4B/4A/B- B2- B/A/B/c/ B/A/B/^d/- | %227
 d/e/A/^d/- d/e/G/d/- d/e/F/e/- e/d/4e/4f/A/- | (3A/F/G/(3A/G/F/ F<G- G/A/4B/4A/G/ G/A/4B/4A/G/ | %229
 G/c/4d/4e- e/d/c/B/ (3A/G/F/G- (3G/F/E/(3B/A/G/ | F/D/C/D/ D<F- F/G/4A/4G/F/ F/G/4A/4G/F/ | %231
 =F/B/4c/4d- d/c/B/A/ (3^G/^F/E/=F- (3F/E/D/(3F/E/D/ | %232
 (3C/B,/A,/G- (3G/=F/E/(3F/E/D/ (3E/D/C/_B- (3B/A/G/(3A/G/F/ | %233
 (3G/=F/E/d (3d/c/B/(3c/B/A/ (3g/f/e/(3f/e/d/ a<=c- | %234
 c/4A/4B/4=c/4B/G/- G/G/4A/4B/4^c/4d/- d/4B/4c/4d/4c/A/- A/A/4B/4c/4d/4e/- | %235
 e/4c/4d/4e/4d/B/- B/-B/4c/4d/4e/4f/- f/4d/4e/4f/4e/c/- c/c/4d/4e/4f/4g/- | %236
 (3g/f/e/(3f/e/d/ (3g/=f/e/(3f/e/d/ f/^GA/- (3A/d/e/(3f/e/d/ | %237
 ^a/cd/- (3d/G/A/(3_B/A/G/ (3c/G/A/(3B/A/G/ (3d/G/A/(3B/A/G/ | %238
 e/4_B/4A/4G/4A/E/ =F/C/D/^G,/- G,/4A,/4B,/4C/4D/4E/4^F/4G/4- (3G/F/E/(3F/E/D/ | %239
 D/4F/4E/4D/4=c- c/B/4A/4B/e/- e/4d/4^c/4B/4A/4d/4^G/- (3G/A/D/(3=G/F/E/ | %240
 D2- D/C!fermata!D/- D3 z |[M:3/2]"^Courante" z8 z2 z F | [A,DF]3 D/F/ GD/G/ A2 B/A/B c2 | %243
 [Ad]4 e2 f2 fgfe | fd/f/gd/g/ a3 B ef/g/fe | %245
 d/4c/4d/4c/4d/4c/4d/4c/4 d/4c/4d/4c/4 A/c/ dA/d/ e2{A} G4- | GF/E/F^A B/4A/4B/- B2 c dc e2 | %247
{e} d3 B/d/ ec/e/ f2 ^g/4f/4g/- g2 a | ^g/4f/4g/4f/4g/4f/4g/4f/4 g/4f/4g/4f/4 e/g/ ae/a/ b2 agfe | %249
 d2 d/4c/4d/4c/4A/c/ dA/d/ e2 f/4e/4f/- f2 g | f3 B c/4B/4A/B e2 ABcA | d6- d4 c2- | %252
 c2 BA/^G/ AB GE/G/ AE/A/ BE/B/ | cE/c/{c} d3 c/B/ cA/c/ dA/d/ eA/d/ | %254
 fA/f/{f} g3 f/e/ fd/f/ ^gd/g/ ad/a/ |{a} b2- b/a/^g/f/ ea- a/g/f/e/ df- f/e/d/c/ | %256
 Bd- d/c/B/A/ ^Ge- eA c2 c/4B/4c/4B/4A/B/ | A6- A4 z F | [A,DF]3 D/F/ GD/G/ A2 B/A/B c2 | %259
 [Ad]4 e2 f2 fgfe | fd/f/gd/g/ a3 B ef/g/fe | %261
 d/4c/4d/4c/4d/4c/4d/4c/4 d/4c/4d/4c/4 A/c/ dA/d/ e2{A} G4- | GF/E/F^A B/4A/4B/- B2 c dc e2 | %263
{e} d3 B/d/ ec/e/ f2 ^g/4f/4g/- g2 a | ^g/4f/4g/4f/4g/4f/4g/4f/4 g/4f/4g/4f/4 e/g/ ae/a/ b2 agfe | %265
 d2 d/4c/4d/4c/4A/c/ dA/d/ e2 f/4e/4f/- f2 g | f3 B c/4B/4A/B e2 ABcA | d6- d4 c2- | %268
 c2 BA/^G/ AB GE/G/ AE/A/ BE/B/ | cE/c/{c} d3 c/B/ cA/c/ dA/d/ eA/d/ | %270
 fA/f/{f} g3 f/e/ fd/f/ ^gd/g/ ad/a/ |{a} b2- b/a/^g/f/ ea- a/g/f/e/ df- f/e/d/c/ | %272
 Bd- d/c/B/A/ ^Ge- eA c2 c/4B/4c/4B/4A/B/ | A6- A4 z e | [ce]3 a/e/ ce/c/ A2{A} B3 c | %275
 d6- df edef | gd/g/ ad/a/ b4 agfe | ^d6 e/4d/4e3/2 e=d=cB | =c/4B/4c/- c2 A/c/ ec/e/ a c2 B2 A | %279
 B/4A/4B/- B2 G/B/ d B/d/g B2 A2 G | A3 F/A/ =cA/c/ f A2 G2 F | G =c2 B ^de A g2 fed | e6 g6- | %283
 g2 fg eg f6- | f2 ef df e6- | eA/d/ fd/f/ a=c- c B2 ^c2 d | %286
 d2 c/B/A/B/ c/B/A/B/ =cf/g/ a/g/f/e/ dc | =c2 B/A/G/A/ B/A/G/A/ Be/f/ g/f/e/d/ ^cB | %288
 B/A/d/e/ f/e/d/c/ BA A/G/c/d/ e/d/c/B/ AG | F3 D/F/ GD/G/ A2{A} B3 =c | B3 E F/4E/4D/E A2 DEFD | %291
 G6- G4 F2- | F2 F/4E/4F/4E/4D/C/ DE CA,/C/ DA,/D/ EA,/E/ | FA,/F/{F} G3 F/E/ FD/F/ GD/G/ AD/A/ | %294
 BE/B/{B} =c3 B/A/ BG/B/ ^cG/c/ dG/d/ | e2- e/d/c/B/ Ad- d/c/B/A/ GB- B/A/G/F/ | %296
 EG- G/F/E/D/ CA- AD F2 F/4E/4F/4E/4D/E/ | D6- D4 z e | [ce]3 a/e/ ce/c/ A2{A} B3 c | d6- df edef | %300
 gd/g/ ad/a/ b4 agfe | ^d6 e/4d/4e3/2 e=d=cB | =c/4B/4c/- c2 A/c/ ec/e/ a c2 B2 A | %303
 B/4A/4B/- B2 G/B/ d B/d/g B2 A2 G | A3 F/A/ =cA/c/ f A2 G2 F | G =c2 B ^de A g2 fed | e6 g6- | %307
 g2 fg eg f6- | f2 ef df e6- | eA/d/ fd/f/ a=c- c B2 ^c2 d | %310
 d2 c/B/A/B/ c/B/A/B/ =cf/g/ a/g/f/e/ dc | =c2 B/A/G/A/ B/A/G/A/ Be/f/ g/f/e/d/ ^cB | %312
 B/A/d/e/ f/e/d/c/ BA A/G/c/d/ e/d/c/B/ AG | F3 D/F/ GD/G/ A2{A} B3 =c | B3 E F/4E/4D/E A2 DEFD | %315
 G6- G4 F2- | F2 F/4E/4F/4E/4D/C/ DE CA,/C/ DA,/D/ EA,/E/ | FA,/F/{F} G3 F/E/ FD/F/ GD/G/ AD/A/ | %318
 BE/B/{B} =c3 B/A/ BG/B/ ^cG/c/ dG/d/ | e2- e/d/c/B/ Ad- d/c/B/A/ GB- B/A/G/F/ | %320
 EG- G/F/E/D/ CA- AD F2 F/4E/4F/4E/4D/E/ | D6- D4 z2 |[M:2/4]"^Aria" z2 z A | G/4F/4G/4F/4 E2 D- | %324
 D C2 D- | DE/F/ GF | G/4F/4G/4F/4E z A | F E2 D- | D C2 D- | DE/F/ GF | G/4F/4G/4F/4E z E | %331
 F/^G/ A2 G/A/ | B/A/^G/F/ E/F/G/A/ | B/c/ d2 c/d/ | e/d/c/B/ A/B/c/d/ | e/f/ g2 f/e/ | %336
 f/a/g/f/ b/a/^g/f/ | e/a/^g/f/ e/d/c/B/ | A3 A | G/4F/4G/4F/4 E2 D- | D C2 D- | DE/F/ GF | %342
 G/4F/4G/4F/4E z A | F E2 D- | D C2 D- | DE/F/ GF | G/4F/4G/4F/4E z E | F/^G/ A2 G/A/ | %348
 B/A/^G/F/ E/F/G/A/ | B/c/ d2 c/d/ | e/d/c/B/ A/B/c/d/ | e/f/ g2 f/e/ | f/a/g/f/ b/a/^g/f/ | %353
 e/a/^g/f/ e/d/c/B/ | A3 e | d/4c/4d/4c/4 B2 A- | AB/c/ dc- | cd/e/ fB- | B^A z f | %359
 e/4d/4e/4d/4 c2 B/^A/ | B/d/c/B/ c/^d/e/f/ | g/b/a/g/ a/b/=c' | f/4e/4f/4e/4^d z B | g f2 e/^d/ | %364
 e/g/f/e/ d/c/B/A/ | f e2 d/c/ | d/f/e/d/ c/B/^A/B/ | e d2 =c/B/ | =c/g/ f2 =f | fB d/c/B/^A/ | %370
 B2 z d | F/A/ G2 F/G/ | A/G/F/E/ D/=c/B/A/ | B/G/F/E/ ^D/A/G/F/ | G/F/E/D/ C/G/F/E/ | %375
 F/D/C/B,/ ^A,/E/D/C/ | D/F/E/D/ E/F/G/A/ | B/G/A/d/ c/B/A/G/ | G/4F/4G/4F/4E z e | %379
 =f/^g/a- a/e/f/d/ | e/d/c/B/ A/G/=F/E/ | =F/^G/A- A/E/F/D/ | E/D/C/B,/ A,/G,/F,/E,/ | %383
 z/ F/ E2 D/C/ | D/F/E/D/ E/F/G/A/ | B/A/=c/B/ A/f/B/A/ | G/B/A/G/ A/B/c/d/ | e/d/=f/e/ d/b/e/d/ | %388
 c/e/d/c/ d/e/f/g/ | ad ec | [FAd]3 e | d/4c/4d/4c/4 B2 A- | AB/c/ dc- | cd/e/ fB- | B^A z f | %395
 e/4d/4e/4d/4 c2 B/^A/ | B/d/c/B/ c/^d/e/f/ | g/b/a/g/ a/b/=c' | f/4e/4f/4e/4^d z B | g f2 e/^d/ | %400
 e/g/f/e/ d/c/B/A/ | f e2 d/c/ | d/f/e/d/ c/B/^A/B/ | e d2 =c/B/ | =c/g/ f2 =f | fB d/c/B/^A/ | %406
 B2 z d | F/A/ G2 F/G/ | A/G/F/E/ D/=c/B/A/ | B/G/F/E/ ^D/A/G/F/ | G/F/E/D/ C/G/F/E/ | %411
 F/D/C/B,/ ^A,/E/D/C/ | D/F/E/D/ E/F/G/A/ | B/G/A/d/ c/B/A/G/ | G/4F/4G/4F/4E z e | %415
 =f/^g/a- a/e/f/d/ | e/d/c/B/ A/G/=F/E/ | =F/^G/A- A/E/F/D/ | E/D/C/B,/ A,/G,/F,/E,/ | %419
 z/ F/ E2 D/C/ | D/F/E/D/ E/F/G/A/ | B/A/=c/B/ A/f/B/A/ | G/B/A/G/ A/B/c/d/ | e/d/=f/e/ d/b/e/d/ | %424
 c/e/d/c/ d/e/f/g/ | ad ec | [FAd]3 z | z4 | %428
[M:3/4]"^Sarabande"[Q:1/4=60] f/4e/4d3/2 d2 d/4c/4d/4c/4d/4c/4d/ | z/ z B/4=c/4 a4 | %430
 B/A/B/d/- d/c/e/d/ c/B/A/G/ | F/A/G/F/ G/F/E/F/ E/DE/ | F/4^G/4AG/ A/E/4D/4E/c/- c/d/E/B/ | %433
 c/4^d/4ed/ e/B/4A/4B/^g/- g/a/B/f/ | ^g/4a/4ba/4g/4 f/4e/<a/g/4f/4e/4 ^d/4e/4fA/ | %435
 ^G/4F/4E/d/B/ G/E/B,/^G,/ E,/F,/4G,/4A,/4B,/4C/4D/4 | %436
 C/4E/4A^G/ A/E/4A/4c/4B/4A/4G/4 A/E/4A/4c/4B/4A/4G/4 | %437
 A/4c/4dc/ d/A/4d/4f/4e/4d/4c/4 d/A/4d/4f/4e/4d/4c/4 | %438
 d/4f/4e/4d/4c/4B/4c/4e/4 a/^g/4f/4e/4d/4c/4B/4 c/A/E/^G/ | A2- A/A^G/ [EA]2 | %440
 f/4e/4d3/2 d2 d/4c/4d/4c/4d/4c/4d/ | z/ z B/4=c/4 a4 | B/A/B/d/- d/c/e/d/ c/B/A/G/ | %443
 F/A/G/F/ G/F/E/F/ E/DE/ | F/4^G/4AG/ A/E/4D/4E/c/- c/d/E/B/ | c/4^d/4ed/ e/B/4A/4B/^g/- g/a/B/f/ | %446
 ^g/4a/4ba/4g/4 f/4e/<a/g/4f/4e/4 ^d/4e/4fA/ | %447
 ^G/4F/4E/d/B/ G/E/B,/^G,/ E,/F,/4G,/4A,/4B,/4C/4D/4 | %448
 C/4E/4A^G/ A/E/4A/4c/4B/4A/4G/4 A/E/4A/4c/4B/4A/4G/4 | %449
 A/4c/4dc/ d/A/4d/4f/4e/4d/4c/4 d/A/4d/4f/4e/4d/4c/4 | %450
 d/4f/4e/4d/4c/4B/4c/4e/4 a/^g/4f/4e/4d/4c/4B/4 c/A/E/^G/ | A2- A/A^G/ [EA]2 | %452
 c/4B/4A3/2 A2 A/4G/4A/4G/4F/G/ | z2 e4 | d/d/4c/4B/g/- g/4f/4e/f/=c/- c/4B/4^A/B/e/- | %455
 e/^A/B/c/ B/A/^G/A/ G/FA/4c/4 | d/4c/4Bc/4^d/4 e/4d/4cd/4e/4 f/4e/4de/4f/4 | %457
 g/4f/4e/-e/4B/4e/4f/4 g/4f/4e/4d/4c/4B/4^A/4^G/4 A/4c/4e=G/ | %458
 F/4G/4F/4E/4E/4F/4E/4D/4 D/4E/4D/4C/4C/4D/4C/4B,/4 B,/4C/4B,/4^A,/<E/D/4 | %459
{C} B,B,/4C/4D/4E/4 F/4E/4D/-D/4E/4F/4G/4 A/4G/4F/-F/4G/4A/4B/4 | %460
 =c/4B/4A^d/ e/B/4A/4B/g/- g/a/c/B/ | A/4G/4Ag/ f/4e/4^de/4g/4 =c'/4b/4a^g/4a/4 | %462
 B/4a/4g/4f/4g/e/ =c/=f/^d/e/- e/d/4^c/4d/4^f/4a/- | %463
 a/g/4f/4g- g/4f/4e/4f/4g/4f/4e/4d/4 c/4B/4A/4B/4c/4d/4e/4f/4 | %464
 g/4A/4^G/4A/4B/4c/4d/4e/4 f/=c/4B/4c/g/ a/c/B/A/ | %465
 B/4G/4F/4G/4A/4B/4c/4d/4 c/G/4F/4G/d/ e/G/F/E/ | %466
 F/4A/4B/4c/4d/4c/4d/- d/4^g/4a/4b/4a/4g/4f/4e/4 d/4c/4d/b/d/ | d<c c/4d/4e/4d/4c/4d/4c/4B/4 B<A | %468
 f/4e/4d3/2 (8:7:8d/c/d/c/d/c/d/c/d/ | z/ z B/4=c/4 a4 | B/4c/4dc/ d/A/4G/4A/f/- f/g/A/g/ | %471
 f/4g/4ag/4f/4 e/4f/4gf/4e/4 d/4e/4fe/4d/4 | %472
 c/4e/4d/4c/4d/4c/4B/4A/4- A/4f/4e/4d/4e/4c/4B/4A/4- A/4g/4f/4e/4f/4c/4B/4A/4- | %473
 A/4a/4g/4f/4g/4f/4e/4d/4 c/4e/4d/4c/4d/4c/4B/4A/4 G/4B/4A/4G/4A/4G/4F/4E/4 | %474
 F/4A/4DC/ D/A,/4D/4F/4E/4D/4C/4 D/A,/4D/4F/4E/4D/4C/4 | %475
 D/4F/4GF/ G/E/4G/4B/4A/4G/4F/4 G/D/4G/4B/4A/4G/4F/4 | %476
 G/4B/4A/4G/4F/4E/4F/4A/4 d/c/4B/4A/4G/4F/4E/4 F/D/A,/C/ | D2[K:bass] F,/A,/D/C/ D2 | %478
[K:treble] c/4B/4A3/2 A2 A/4G/4A/4G/4F/G/ | z2 e4 | d/d/4c/4B/g/- g/4f/4e/f/=c/- c/4B/4^A/B/e/- | %481
 e/^A/B/c/ B/A/^G/A/ G/FA/4c/4 | d/4c/4Bc/4^d/4 e/4d/4cd/4e/4 f/4e/4de/4f/4 | %483
 g/4f/4e/-e/4B/4e/4f/4 g/4f/4e/4d/4c/4B/4^A/4^G/4 A/4c/4e=G/ | %484
 F/4G/4F/4E/4E/4F/4E/4D/4 D/4E/4D/4C/4C/4D/4C/4B,/4 B,/4C/4B,/4^A,/<E/D/4 | %485
{C} B,B,/4C/4D/4E/4 F/4E/4D/-D/4E/4F/4G/4 A/4G/4F/-F/4G/4A/4B/4 | %486
 =c/4B/4A^d/ e/B/4A/4B/g/- g/a/c/B/ | A/4G/4Ag/ f/4e/4^de/4g/4 =c'/4b/4a^g/4a/4 | %488
 B/4a/4g/4f/4g/e/ =c/=f/^d/e/- e/d/4^c/4d/4^f/4a/- | %489
 a/g/4f/4g- g/4f/4e/4f/4g/4f/4e/4d/4 c/4B/4A/4B/4c/4d/4e/4f/4 | %490
 g/4A/4^G/4A/4B/4c/4d/4e/4 f/=c/4B/4c/g/ a/c/B/A/ | %491
 B/4G/4F/4G/4A/4B/4c/4d/4 c/G/4F/4G/d/ e/G/F/E/ | %492
 F/4A/4B/4c/4d/4c/4d/- d/4^g/4a/4b/4a/4g/4f/4e/4 d/4c/4d/b/d/ | d<c c/4d/4e/4d/4c/4d/4c/4B/4 B<A | %494
 f/4e/4d3/2 (8:7:8d/c/d/c/d/c/d/c/d/ | z/ z B/4=c/4 a4 | B/4c/4dc/ d/A/4G/4A/f/- f/g/A/g/ | %497
 f/4g/4ag/4f/4 e/4f/4gf/4e/4 d/4e/4fe/4d/4 | %498
 c/4e/4d/4c/4d/4c/4B/4A/4- A/4f/4e/4d/4e/4c/4B/4A/4- A/4g/4f/4e/4f/4c/4B/4A/4- | %499
 A/4a/4g/4f/4g/4f/4e/4d/4 c/4e/4d/4c/4d/4c/4B/4A/4 G/4B/4A/4G/4A/4G/4F/4E/4 | %500
 F/4A/4DC/ D/A,/4D/4F/4E/4D/4C/4 D/A,/4D/4F/4E/4D/4C/4 | %501
 D/4F/4GF/ G/E/4G/4B/4A/4G/4F/4 G/D/4G/4B/4A/4G/4F/4 | %502
 G/4B/4A/4G/4F/4E/4F/4A/4 d/c/4B/4A/4G/4F/4E/4 F/D/A,/C/ | D2[K:bass] F,/A,/D/C/ !fermata!D2 | z6 | %505
[M:3/4][K:treble]"^Menuet"[Q:1/4=80] f/4e/4f/- f2 g/4f/4e/4f/4 g2 | e2 a/4g/4a3/2- a2 | %507
 (3def (3gfe (3agf | f/4e/4f/4e/4f/4e/4f/4e/4 f/4e/4f/4e/4f/4e/4d/4e/4 d2 | %509
 f/4e/4f/- f2 g/4f/4e/4f/4 g2 | e2 a/4g/4a3/2- a2 | (3def (3gfe (3agf |{f} e6 | %513
 f/4e/4f/- f2 g/4f/4e/4f/4 g2 | e2 a/4g/4a3/2- a2 | (3def (3gfe (3agf | %516
 f/4e/4f/4e/4f/4e/4f/4e/4 f/4e/4f/4e/4f/4e/4d/4e/4 d2 | f/4e/4f/- f2 g/4f/4e/4f/4 g2 | %518
 e2 a/4g/4a3/2- a2 | (3def (3gfe (3agf |{f} e6 | (3ABc (3dcB (3cBA | a2 ed cB | (3ABc (3dcB (3cBA | %524
 g6 | (3fed (3cde (3dcB | (3^ABc (3BA^G F2- | (3F^G^A (3Bcd (3edc | (3def (3gfe (3fga | %529
 (3gfg (3Ace (3gfe | (3fef (3^Acd (3edc | (3dcB c2 B/4^A/4^G/4A/4-A | B6 | %533
 F/4E/4F/- F2 G/4F/4-E/4F/4 G2 | A2 [A=c]4 | (3Bcd (3cde (3def | (3edc (3dcB (3Acf | %537
 a/4g/4a/- a2 b/4a/4g/4a/4 b2 | [Ac]2 [eg]4 | (3fed (3efg (3ABc | d6 | (3ABc (3dcB (3cBA | %542
 a2 ed cB | (3ABc (3dcB (3cBA | g6 | (3fed (3cde (3dcB | (3^ABc (3BA^G F2- | (3F^G^A (3Bcd (3edc | %548
 (3def (3gfe (3fga | (3gfg (3Ace (3gfe | (3fef (3^Acd (3edc | (3dcB c2 B/4^A/4^G/4A/4-A | B6 | %553
 F/4E/4F/- F2 G/4F/4-E/4F/4 G2 | A2 [A=c]4 | (3Bcd (3cde (3def | (3edc (3dcB (3Acf | %557
 a/4g/4a/- a2 b/4a/4g/4a/4 b2 | [Ac]2 [eg]4 | (3fed (3efg (3ABc | !fermata!d6 | z6 | %562
[M:9/16]"^Gigue" D3/2- D/F/A/d/A/F/ | D/F/A/ =c3/2 z3/2 | B/A/B<E- E/F/G/ | A/G/A<D- D/E/F/ | %566
 G/E/C/ A,/C/E/ G/F/E/ | F/D/E/ F/G/A/ B/c/d/ | c/B/A/ d/c/B/ c/B/A/ | e3/2- e/c/d/ e/f/g/ | %570
 a3/2- a/B/c/ d/e/f/ | g3/2- g/A/B/ c/d/e/ | f3/2 ^G3/2 b3/2- | b/c/e/ a3/2 ^d3/2 | %574
 e/E/F/ G/A/B/ c/d/e/ | d3/2 =c'3/2 f3/2 | g/G/A/ B/c/d/ e/f/g/ | f/e/d/ a3/2[eg]3/2- | %578
 [eg]3/2 f3/2 z3/2 | f3/2 g z/ z3/2 | g3/2 f z/ z3/2 | d3/2 c3/2 e3/2- | e3/2 d3/2 ^g3/2 | %583
 a3/2 c3/2 ^d3/2 | ^d3/2 e3/2 ^a3/2 | b3/2 ^d3/2 ^e3/2 | f3/2 a3/2 a3/2 | a3/2 z3/2 z3/2 | %588
 g/f/e/ g3/2 g3/2 | g3/2 z3/2 z3/2 | f/d/B/ B/^A/B/ c/d/e/ | d/B/G/ G/F/G/ A/B/=c/ | %592
 B/G/e/- e/^d/e/ f/g/a/ | g3- g3/2- | g/ z z3/2 z3/2 | A,/D/F/ A/d/f/ d/A/F/ | %596
 D/[I:staff +1]B,/[I:staff -1]D/ ^G/B/d/ ^g/b/g/ | a/e/c/ A/E/C/[I:staff +1] A,/[I:staff -1]C/E/ | %598
 A/c/e/ g3/2 z3/2 | f/e/f/ B3/2- B/c/d/ | e/d/e/ A3/2- A/B/c/ | d/B/^G/ E/G/B/ d/c/B/ | %602
 c3/2- [Ac]3/2 z3/2 | c3/2- [Ac]3/2 z3/2 | =c3/2- [Ac]3/2 z3/2 | =c3/2- [Ac]3/2 z3/2 | %606
 z/ F/^G/ A/B/=c/- c/B/A/ | ^G/A/B/ E/G/B/- [Be-]3/2 | e/d/c/ B/c/A/ E/A/^G/ | %609
[I:staff +1] A,,/C,/E,/ A,/C/[I:staff -1]E/ A3/2 | D3/2- D/F/A/d/A/F/ | D/F/A/ =c3/2 z3/2 | %612
 B/A/B<E- E/F/G/ | A/G/A<D- D/E/F/ | G/E/C/ A,/C/E/ G/F/E/ | F/D/E/ F/G/A/ B/c/d/ | %616
 c/B/A/ d/c/B/ c/B/A/ | e3/2- e/c/d/ e/f/g/ | a3/2- a/B/c/ d/e/f/ | g3/2- g/A/B/ c/d/e/ | %620
 f3/2 ^G3/2 b3/2- | b/c/e/ a3/2 ^d3/2 | e/E/F/ G/A/B/ c/d/e/ | d3/2 =c'3/2 f3/2 | %624
 g/G/A/ B/c/d/ e/f/g/ | f/e/d/ a3/2[eg]3/2- | [eg]3/2 f3/2 z3/2 | f3/2 g z/ z3/2 | g3/2 f z/ z3/2 | %629
 d3/2 c3/2 e3/2- | e3/2 d3/2 ^g3/2 | a3/2 c3/2 ^d3/2 | ^d3/2 e3/2 ^a3/2 | b3/2 ^d3/2 ^e3/2 | %634
 f3/2 a3/2 a3/2 | a3/2 z3/2 z3/2 | g/f/e/ g3/2 g3/2 | g3/2 z3/2 z3/2 | f/d/B/ B/^A/B/ c/d/e/ | %639
 d/B/G/ G/F/G/ A/B/=c/ | B/G/e/- e/^d/e/ f/g/a/ | g3- g3/2- | g/ z z3/2 z3/2 | %643
 A,/D/F/ A/d/f/ d/A/F/ | D/[I:staff +1]B,/[I:staff -1]D/ ^G/B/d/ ^g/b/g/ | %645
 a/e/c/ A/E/C/[I:staff +1] A,/[I:staff -1]C/E/ | A/c/e/ g3/2 z3/2 | f/e/f/ B3/2- B/c/d/ | %648
 e/d/e/ A3/2- A/B/c/ | d/B/^G/ E/G/B/ d/c/B/ | c3/2- [Ac]3/2 z3/2 | c3/2- [Ac]3/2 z3/2 | %652
 =c3/2- [Ac]3/2 z3/2 | =c3/2- [Ac]3/2 z3/2 | z/ F/^G/ A/B/=c/- c/B/A/ | ^G/A/B/ E/G/B/- [Be-]3/2 | %656
 e/d/c/ B/c/A/ E/A/^G/ |[I:staff +1] A,,/C,/E,/ A,/C/[I:staff -1]E/ A3/2 | z9/2 | z9/2 | z9/2 | %661
 z9/2 | z9/2 | z9/2 | F/G/A/ B,/A/G/ F/G/A/ | =C/A/G/ F/G/A/ D/E/F/ | G/B/d/ c/B/A/ G/F/E/ | %667
 F/A/=c/ B/A/G/ F/E/D/ | E/F/G/ F/E/D/ E/D/C/ | D/A/G/ F/E/D/ =C/B,/A,/ | B,3/2 ^D3/2 A3/2- | %671
 A/B/A/ ^G/F/E/ D/C/B,/ | C3/2 ^E3/2 B3/2- | B3/2 ^A3/2 F3/2 | ^G/e/d/ c/d/e/ ^A/B/c/ | %675
 d/f/a/ ^g/f/e/ d/c/B/ | c/e/g/ f/e/d/ =c/B/A/ | B/=c/d/ c/B/A/ B/A/G/ | A/B/=c/ B/A/G/ A/G/F/ | %679
 G/b/a/ g/f/e/ d/c/B/ | c/d/e/ d/e/f/ e/f/g/ | f/a/g/ f/e/d/ =c/B/^A/ | B/c/d/ c/d/e/ d/e/f/ | %683
 e3/2 c3/2 g3/2 | f3/2 e3 | f3/2 b3- | b3/2 a3/2 g3/2 | f3- f3/2- | f3/2- f/f/e/ d/c/B/ | %689
 e3- e3/2- | e3/2- e/e/d/ c/B/A/ | d3- d3/2- | d>dd/c/ B/A/^G/ | c/B/A/ d3 | %694
 e/f/e/ d/B/=c/- c=c'/ | b/a/b/ e3/2- e/f/g/ | a/g/a/ d3/2- d/e/f/ | g/e/c/ A/c/e/ g/f/e/ | %698
 f3/2- f3/2 z3/2 | f3/2- f3/2 z3/2 | =f3/2- f3/2 z3/2 | =f3/2- f3/2 z3/2 | %702
 z/ B/c/ d/e/=f/- f/e/d/ | c/d/e/ A/c/e-<[ea-] | a/g/f/ e/f/d/ A/d/c/ | %705
 d/A/F/ D/[I:staff +1]A,/F,/ D,3/2 |[I:staff -1] z9/2 | z9/2 | z9/2 | z9/2 | z9/2 | z9/2 | %712
 F/G/A/ B,/A/G/ F/G/A/ | =C/A/G/ F/G/A/ D/E/F/ | G/B/d/ c/B/A/ G/F/E/ | F/A/=c/ B/A/G/ F/E/D/ | %716
 E/F/G/ F/E/D/ E/D/C/ | D/A/G/ F/E/D/ =C/B,/A,/ | B,3/2 ^D3/2 A3/2- | A/B/A/ ^G/F/E/ D/C/B,/ | %720
 C3/2 ^E3/2 B3/2- | B3/2 ^A3/2 F3/2 | ^G/e/d/ c/d/e/ ^A/B/c/ | d/f/a/ ^g/f/e/ d/c/B/ | %724
 c/e/g/ f/e/d/ =c/B/A/ | B/=c/d/ c/B/A/ B/A/G/ | A/B/=c/ B/A/G/ A/G/F/ | G/b/a/ g/f/e/ d/c/B/ | %728
 c/d/e/ d/e/f/ e/f/g/ | f/a/g/ f/e/d/ =c/B/^A/ | B/c/d/ c/d/e/ d/e/f/ | e3/2 c3/2 g3/2 | f3/2 e3 | %733
 f3/2 b3- | b3/2 a3/2 g3/2 | f3- f3/2- | f3/2- f/f/e/ d/c/B/ | e3- e3/2- | e3/2- e/-e/d/ c/B/A/ | %739
 d3- d3/2- | d>dd/c/ B/A/^G/ | c/B/A/ d3 | e/f/e/ d/B/=c/- c=c'/ | b/a/b/ e3/2- e/f/g/ | %744
 a/g/a/ d3/2- d/e/f/ | g/e/c/ A/c/e/ g/f/e/ | f3/2- f3/2 z3/2 | f3/2- f3/2 z3/2 | %748
 =f3/2- f3/2 z3/2 | =f3/2- f3/2 z3/2 | z/ B/c/ d/e/=f/- f/e/d/ | c/d/e/ A/c/e-<[ea-] | %752
 a/g/f/ e/f/d/ A/d/c/ | d/A/F/ D/[I:staff +1]A,/F,/ !fermata!D,3/2 |] %754
V:2
 A4- A>DE>F | G2- G/4E/4F/4G/4A/4B/4c/4d/4 z z/[I:staff +1] E/ D>C | D4- D3/2[I:staff -1] z/ z2 | %3
 z z/[I:staff +1] B,<CD/ E3/2[I:staff -1] z/ !arpeggio!A2 | A4 A3 A | z z/ D<EF/ G3/2 z/ z2 | %6
 z z/[I:staff +1] F,<^G,^A,/ B,[I:staff -1] z z2 | x8 | B2 z2 z2 d2- | d/ z/ z z2 z2 c2- | %10
 c3/2 z/ z2 ^G3 G | A z z2 ^G4 | z4 z z/4 e/4d/4c/4 d2- | d2- (9:8:4d3/2d/4c/4B/4 c4- | %14
 (9:8:4c3/2c/4B/4A/4 B2- B2 z2 | z4 z2 z/ z/4 E/4F/4^G/4A/4B/4 | =c2 z/ f3/2 e2 d2 | c4 z4 | %18
 A4- A>DE>F | G2- G/4E/4F/4G/4A/4B/4c/4d/4 z z/[I:staff +1] E/ D>C | D4- D3/2[I:staff -1] z/ z2 | %21
 z z/[I:staff +1] B,<CD/ E3/2[I:staff -1] z/ !arpeggio!A2 | A4 A3 A | z z/ D<EF/ G3/2 z/ z2 | %24
 z z/[I:staff +1] F,<^G,^A,/ B,[I:staff -1] z z2 | x8 | B2 z2 z2 d2- | d/ z/ z z2 z2 c2- | %28
 c3/2 z/ z2 ^G3 G | A z z2 ^G4 | z4 z z/4 e/4d/4c/4 d2- | d2- (9:8:4d3/2d/4c/4B/4 c4- | %32
 (9:8:4c3/2c/4B/4A/4 B2- B2 z2 | z4 z2 z/ z/4 E/4F/4^G/4A/4B/4 | =c2 z/ f3/2 e2 d2 | %35
[M:9/8] dce fBd eAc | x9 | cd/c/B/A/ d z z =c z z | B=c/B/A/G/ F z z A z z | %39
 DE/F/G/A/ B z z A z z | ^GA/G/F/E/ A z z G z z | d3- dbd A B2- | B>dc/B/ A>cB/A/ ^G2 E | %43
 F3 ^G>BA/G/ F>AG/F/ | E3- E/D/E/D/C/D/- D/D/E/D/C/D/- | D/C/D/E/F/^G/ A3 B3- | B^GA- AGA- AGA- | %47
 A2 z z =FA BE^G | A>dc/B/ A>cB/A/ ^G2 A | D3 C3 B,3 | x9 | A,2 z z3 z3 | x9 | %53
[I:staff +1] [DF]2[I:staff -1] z G2 z F2 z | E2 z F2 z E2 z | D2 z z3 z3 | x9 | x9 | x9 | x9 | x9 | %61
 B2 z E2 z F2 z | G2 z =c2 z ^d2 z | x9 | x9 | x9 | x9 | x9 | x9 | x9 | %70
 z A/B/c/d/ e/f/e/d/c/B/ A3- | A z z z3 ^c'/a/g/f/e/d/ | x9 | x9 | x9 | x9 | z3 z2 c c3- | %77
 ccc BBB [^Ac]3- | [Ac]/ z/ z2 z c2- c B2- | B ^A2- A B2- B A2 | B z z z z f f3- | fff eee [df]3- | %82
 [df]/ z/ z2 z f2- f e2- | e ^d2- d e2- e d2 | z ec ^A3- A B2- | B^Ac- c B2- BAc | F3- F E2 D2 C | %87
 D2 z z2 z4 | x9 | x9 | x9 | x9 | x9 | x9 | x9 | x9 | x9 | x9 | x9 | x9 | x9 | x9 | x9 | x9 | x9 | %105
 x9 | D2 z z3 =F2 z | [B,D=F]2 z z3 [B,D^G]2 z | [A,EA]2 z z3[I:staff +1] E3 | %109
 D2[I:staff -1] z z3[I:staff +1] D3 | C2[I:staff -1] z z3[I:staff +1] C3 | %111
 B,2[I:staff -1] z z3[I:staff +1] B,3 | x9 | x9 | x9 |[I:staff -1] z3 z3 a/g/f/e/^d/c/ | %116
 B3 z/ B/c/d/e/f/ g/f/e/d/c/B/ | A3 f/F/G/A/B/c/ d/c/B/A/G/F/- | F3 E3 D E2- | %119
 E>GF/E/ D>FE/D/ C2 A, | B,3 C>ED/C/ B,>DC/B,/ | %121
[I:staff +1] A,3- A,/G,/A,/G,/F,/G,/- G,/G,/A,/G,/F,/G,/- | %122
 G,/F,/^G,/^A,/B,/C/[I:staff -1] D3 E3- | ECD- DCD- DCD- | D2 z z[I:staff +1] _B,D EA,C | %125
 D[I:staff -1] z/ g/f/e/ d>fe/d/ c2 d | G3 F3 E3 | x9 |[M:4/4] x8 | x8 | D4 z4 | x8 | x8 | A4 z4 | %134
 x8 | x8 | x8 | x8 | x8 | x8 | x8 | x8 | z4 z[I:staff +1] B,3- | B,[I:staff -1] z z2 z4 | %144
 z[I:staff +1] D2 =C B,[I:staff -1] z z2 | z6 ^G2 | x8 | x8 | x8 | x8 | x8 | x8 | x8 | x8 | D4 z4 | %155
 x8 | x8 | A4 z4 | x8 | x8 | x8 | x8 | x8 | x8 | x8 | x8 | z4 z[I:staff +1] B,3- | %167
 B,[I:staff -1] z z2 z4 | z[I:staff +1] D2 =C B,[I:staff -1] z z2 | z6 ^G2 | x8 | x8 | x8 | x8 | %174
 x8 | x8 | x8 | x8 | x8 | x8 | x8 | x8 | x8 | x8 | x8 | z4 z[I:staff +1] C3- | %186
 C[I:staff -1] z z2 z4 | x8 | x8 | x8 | x8 | x8 | z/ E/F/C/ D4 z2 | x8 | z z/ F/ G/D/B, z4 | x8 | %196
 x8 | x8 | x8 | x8 | x8 | x8 | z D E2- EE F2- | FF G2- GG A2- | A A2 A z D2 D | %205
 z EA,D z[I:staff +1] G,2 G, | x8 | x8 | %208
[I:staff -1] (9:8:4D3/2B,/4A,/4G,/4 A,2[I:staff +1] G, F,2 x | x8 | x8 | x8 | x8 | x8 | x8 | x8 | %216
 x8 |[I:staff -1] z4 z[I:staff +1] C3- | C[I:staff -1] z z2 z4 | x8 | x8 | x8 | x8 | x8 | %224
 z/ E/F/C/ D4 z2 | x8 | z z/ F/ G/D/B, z4 | x8 | x8 | x8 | x8 | x8 | x8 | x8 | z D E2- EE F2- | %235
 FF G2- GG A2- | A A2 A z D2 D | z EA,D z[I:staff +1] G,2 G, | x8 | x8 | %240
[I:staff -1] (9:8:4D3/2B,/4A,/4G,/4 A,2[I:staff +1] G, !fermata!F,2 x |[M:3/2] x12 | x12 | %243
[I:staff -1] D4 B2 c2 d2 A2- | A2[I:staff +1] D4- D2 B,4 | x12 | x12 | x12 | x12 | x12 | %250
 D4[I:staff -1] F2 ^G2 z2 E2 | FF G/4F/4E/F B2 EF ^GE A2 | F6 z2 z4 | x12 | x12 | x12 | x12 | %257
 z6 [CE]4 z z | x12 | D4 B2 c2 d2 A2- | A2[I:staff +1] D4- D2 B,4 | x12 | x12 | x12 | x12 | x12 | %266
 D4[I:staff -1] F2 ^G2 z2 E2 | FF G/4F/4E/F B2 EF ^GE A2 | F6 z2 z4 | x12 | x12 | x12 | x12 | %273
 z6 [CE]4 x2 | x12 | z A [FA]4 z6 | x12 | z B F4 z2[I:staff +1] B,2 E2- | E=C E4- E2 A,2 D2- | %279
 DB, D6 G,2 =C2- | CA, =C4- C2 F,2 B,2- | B,2 A,2 B,2 E,2 A,2 F,2 | %282
[I:staff -1] z B G4 z d/B/ GB/G/EG/E/ | A6- Ad/A/ FA/F/ DF/D/ | G6- GA,/C/ EC/E/ AE/A/ | %285
 c z z2 z4[I:staff +1] G,2 F,2 | E,[I:staff -1] z z2 z8 | x12 | x12 | x12 | %290
[I:staff +1] G,4 B,2 C2[I:staff -1] z2[I:staff +1] A,2 | %291
 B,[I:staff -1]B, C/4B,/4A,/B, E2 A,B, CA, D2 | B,2 z2 z8 | x12 | x12 | x12 | x12 | A,6 A,4 z z | %298
 x12 | z A [FA]4 z6 | x12 | z B F4 z2[I:staff +1] B,2 E2- | E=C E4- E2 A,2 D2- | DB, D6 G,2 =C2- | %304
 CA, =C4- C2 F,2 B,2- | B,2 A,2 B,2 E,2 A,2 F,2 |[I:staff -1] z B G4 z d/B/ GB/G/EG/E/ | %307
 A6- Ad/A/ FA/F/ DF/D/ | G6- GA,/C/ EC/E/ AE/A/ | c z z2 z4[I:staff +1] G,2 F,2 | %310
 E,[I:staff -1] z z2 z8 | x12 | x12 | x12 |[I:staff +1] G,4 B,2 C2[I:staff -1] z2[I:staff +1] A,2 | %315
 B,[I:staff -1]B, C/4B,/4A,/B, E2 A,B, CA, D2 | B,2 z2 z8 | x12 | x12 | x12 | x12 | A,6 A,4 x2 | %322
[M:2/4] x4 | x4 | x4 | z3 D | DC z E | x4 | x4 | A,3 [A,D] | DC x2 | x4 | x4 | x4 | x4 | x4 | x4 | %337
 x4 | x4 | x4 | x4 | z3 D | DC z E | x4 | x4 | A,3 [A,D] | DC x2 | x4 | x4 | x4 | x4 | x4 | x4 | %353
 x4 | x4 | x4 | x4 |[I:staff +1] F,2[I:staff -1] z D- | DC z2 | x4 | x4 | x4 | x4 | x4 | x4 | x4 | %366
 x4 | x4 | x4 | x4 | x4 | x4 | x4 | x4 | x4 | x4 | x4 | x4 | x4 | x4 | x4 | x4 | x4 | x4 | x4 | %385
 x4 | x4 | x4 | x4 | FA [GB][EA] | x4 | x4 | x4 |[I:staff +1] F,2[I:staff -1] z D- | DC z2 | x4 | %396
 x4 | x4 | x4 | x4 | x4 | x4 | x4 | x4 | x4 | x4 | x4 | x4 | x4 | x4 | x4 | x4 | x4 | x4 | x4 | %415
 x4 | x4 | x4 | x4 | x4 | x4 | x4 | x4 | x4 | x4 | FA [GB][EA] | x4 | x4 |[M:3/4] x6 | x6 | x6 | %431
 x6 | x6 | x6 | x6 | x6 | x6 | x6 | x6 | z/ E/F/D/ C[B,D] [A,C]2 | x6 | x6 | x6 | x6 | x6 | x6 | %446
 x6 | x6 | x6 | x6 | x6 | z/ E/F/D/ C[B,D] [A,C]2 | x6 | x6 | x6 | x6 | x6 | x6 | x6 | x6 | x6 | %461
 x6 | x6 | x6 | x6 | x6 | x6 | x6 | x6 | x6 | x6 | x6 | x6 | x6 | x6 | x6 | x6 | %477
 z2[K:bass] F,>E, F,2 |[K:treble] x6 | x6 | x6 | x6 | x6 | x6 | x6 | x6 | x6 | x6 | x6 | x6 | x6 | %491
 x6 | x6 | x6 | x6 | x6 | x6 | x6 | x6 | x6 | x6 | x6 | x6 | z2[K:bass] F,>E, F,2 | x6 | %505
[M:3/4][K:treble] x6 | x6 | x6 | x6 | x6 | x6 | x6 | x6 | x6 | x6 | x6 | x6 | x6 | x6 | x6 | x6 | %521
 x6 | x6 | x6 | x6 | x6 | x6 | x6 | x6 | x6 | x6 | x6 | %532
 (3z DB,[I:staff +1] (3B,F,D,[I:staff -1] z2 | D6- | D6 | x6 | x6 | z2[I:staff +1] D2 D2 | %538
[I:staff -1] E2 A4 | x6 | x6 | x6 | x6 | x6 | x6 | x6 | x6 | x6 | x6 | x6 | x6 | x6 | %552
 (3z DB,[I:staff +1] (3B,F,D,[I:staff -1] z2 | D6- | D6 | x6 | x6 | z2[I:staff +1] D2 D2 | %558
[I:staff -1] E2 A4 | x6 | x6 | x6 |[M:9/16] x9/2 | x9/2 | x9/2 | x9/2 | x9/2 | x9/2 | x9/2 | x9/2 | %570
 x9/2 | x9/2 | x9/2 | x9/2 | x9/2 | x9/2 | x9/2 | D3/2 z3/2 c3/2- | c3/2 d/F/G/ A/B/=c/ | %579
 d3/2- d/F/G/ A/B/c/ | c3/2- c/D/E/ F/G/A/ | B3/2 z3/2 c3/2 | A3/2 z3/2 d3/2 | e3/2 E3/2 F3/2 | %584
 B3 e3/2 | f3/2 F3/2 ^G3/2 | c3/2 f3/2 f3/2 | f/F/G/ A/B/c/ ^d/e/f/ | z3/2 e3/2e3/2 | %589
 e/E/F/ G/A/B/ c/d/e/ | z3/2 F3/2 E3/2 | z3/2 D3/2 =C3/2 | z3/2 E3/2 ^D3/2 | g/e/c/ c/B/c/ d/c/B/ | %594
 A/c/e/ g/e/c/ A/E/C/ | x9/2 | x9/2 | x9/2 | x9/2 | x9/2 | x9/2 | x9/2 | c/^G/A/ E3/2 z3/2 | %603
 c/^G/A/ E3/2 z3/2 | =c/^G/A/ ^D3/2 z3/2 | =c/^G/A/ E3/2 z3/2 | x9/2 | z3/2 E3/2- E3/2 | x9/2 | %609
 x9/2 | x9/2 | x9/2 | x9/2 | x9/2 | x9/2 | x9/2 | x9/2 | x9/2 | x9/2 | x9/2 | x9/2 | x9/2 | x9/2 | %623
 x9/2 | x9/2 | D3/2 z3/2 c3/2- | c3/2 d/F/G/ A/B/=c/ | d3/2- d/F/G/ A/B/c/ | c3/2- c/D/E/ F/G/A/ | %629
 B3/2 z3/2 c3/2 | A3/2 z3/2 d3/2 | e3/2 E3/2 F3/2 | B3 e3/2 | f3/2 F3/2 ^G3/2 | c3/2 f3/2 f3/2 | %635
 f/F/G/ A/B/c/ ^d/e/f/ | z3/2 e3/2e3/2 | e/E/F/ G/A/B/ c/d/e/ | z3/2 F3/2 E3/2 | z3/2 D3/2 =C3/2 | %640
 z3/2 E3/2 ^D3/2 | g/e/c/ c/B/c/ d/c/B/ | A/c/e/ g/e/c/ A/E/C/ | x9/2 | x9/2 | x9/2 | x9/2 | x9/2 | %648
 x9/2 | x9/2 | c/^G/A/ E3/2 z3/2 | c/^G/A/ E3/2 z3/2 | =c/^G/A/ ^D3/2 z3/2 | =c/^G/A/ E3/2 z3/2 | %654
 x9/2 | z3/2 E3/2- E3/2 | x9/2 | x9/2 | x9/2 | x9/2 | x9/2 | x9/2 | x9/2 | x9/2 | x9/2 | x9/2 | %666
 x9/2 | x9/2 | x9/2 | x9/2 | x9/2 | x9/2 | x9/2 | c/d/e/ F/e/d/ c/d/e/ | D3/2 E3/2 C3/2 | %675
 B,3/2- B,/C/D/ E/F/^G/ | A3/2- A/B,/=C/ D/E/F/ | G3/2[I:staff +1] G,3- | G,3/2 F,3/2 ^D,3/2 | %679
 E,3/2 B,3/2 E3/2 | A,3- A,3/2- | A,3/2[I:staff -1] z3/2 F3/2- | F3/2 E3/2 B3/2- | %683
 B3/2 ^A3/2 e3/2 | d3 c3/2 | B3 ^g3/2 | e3/2 z3/2 e3/2- | e/F/G/ A/B/c/ d/e/f/ | B/c/d/ G3- | %689
 G/E/F/ ^G/A/B/ c/d/e/ | A/B/c/ F3- | F/D/E/ F/^G/A/ B/c/d/ | ^G/A/B/ E3- | E3/2 z/ c/B/ A/B/G/- | %694
 G3 F z/ | x9/2 | x9/2 | x9/2 | f/c/d/- d3/2 z3/2 | f/c/d/- d3/2 z3/2 | =f/c/d/- d3/2 z3/2 | %701
 =f/c/d/- d3/2 z3/2 | x9/2 | z3/2 A3/2- A3/2 | x9/2 | x9/2 | x9/2 | x9/2 | x9/2 | x9/2 | x9/2 | %711
 x9/2 | x9/2 | x9/2 | x9/2 | x9/2 | x9/2 | x9/2 | x9/2 | x9/2 | x9/2 | c/d/e/ F/e/d/ c/d/e/ | %722
 D3/2 E3/2 C3/2 | B,3/2- B,/C/D/ E/F/^G/ | A3/2- A/B,/=C/ D/E/F/ | G3/2[I:staff +1] G,3- | %726
 G,3/2 F,3/2 ^D,3/2 | E,3/2 B,3/2 E3/2 | A,3- A,3/2- | A,3/2[I:staff -1] z3/2 F3/2- | %730
 F3/2 E3/2 B3/2- | B3/2 ^A3/2 e3/2 | d3 c3/2 | B3 ^g3/2 | e3/2 z3/2 e3/2- | e/F/G/ A/B/c/ d/e/f/ | %736
 B/c/d/ G3- | G/E/F/ ^G/A/B/ c/d/e/ | A/B/c/ F3- | F/D/E/ F/^G/A/ B/c/d/ | ^G/A/B/ E3- | %741
 E3/2 z/ c/B/ A/B/G/- | G3 F z/ | x9/2 | x9/2 | x9/2 | f/c/d/- d3/2 z3/2 | f/c/d/- d3/2 z3/2 | %748
 =f/c/d/- d3/2 z3/2 | =f/c/d/- d3/2 z3/2 | x9/2 | z3/2 A3/2- A3/2 | x9/2 | x9/2 |] %754
V:3
 d/4c/4d3/2- d2- d3/2 z/ z2 | B2- B/4 z/4 z/ z e>A A/4^G/4A/4G/4A/4G/4A/- | %2
 A2- A/4 z/4 z/ z z z/ B<ed/ | c>de>f A2 !arpeggio!e2 | d4 d/4c/4d3/2- d2 | B2 z2 B4- | B2 z2 B4- | %7
 B3/2 z/ z2 z z/ [Ad]<[Bd][ce]/ | e2 z2 z z/ ^g/- g2- | g/ z/ z z2 z2 z/ e3/2- | e3/2 z/ z2 z4 | %11
 x8 | x8 | x8 | x8 | x8 | x8 | x8 | d/4c/4d3/2- d2- d3/2 z/ z2 | %19
 B2- B/4 z/4 z/ z e>A A/4^G/4A/4G/4A/4G/4A/- | A2- A/4 z/4 z/ z z z/ B<ed/ | %21
 c>de>f A2 !arpeggio!e2 | d4 d/4c/4d3/2- d2 | B2 z2 B4- | B2 z2 B4- | %25
 B3/2 z/ z2 z z/ [Ad]<[Bd][ce]/ | e2 z2 z z/ ^g/- g2- | g/ z/ z z2 z2 z/ e3/2- | e3/2 z/ z2 z4 | %29
 x8 | x8 | x8 | x8 | x8 | x8 |[M:9/8] x9 | x9 | x9 | x9 | x9 | e3 z2 z4 | x9 | x9 | x9 | x9 | x9 | %46
 x9 | x9 | x9 | x9 | x9 | x9 | x9 | x9 | x9 | x9 | x9 | x9 | x9 | x9 | x9 | x9 | x9 | x9 | x9 | %65
 x9 | x9 | x9 | x9 | x9 | x9 | x9 | x9 | x9 | x9 | x9 | x9 | x9 | x9 | x9 | x9 | x9 | x9 | x9 | %84
 x9 | x9 | x9 | x9 | x9 | x9 | x9 | x9 | x9 | x9 | x9 | x9 | x9 | x9 | x9 | x9 | x9 | x9 | x9 | %103
 x9 | x9 | x9 | x9 | x9 | x9 | x9 | x9 | x9 | x9 | x9 | x9 | x9 | x9 | x9 | x9 | x9 | x9 | x9 | %122
 x9 | x9 | x9 | x9 | x9 | x9 |[M:4/4] x8 | x8 | x8 | x8 | x8 | x8 | x8 | x8 | x8 | x8 | x8 | x8 | %140
 x8 | x8 | x8 | x8 | x8 | x8 | x8 | x8 | x8 | x8 | x8 | x8 | x8 | x8 | x8 | x8 | x8 | x8 | x8 | %159
 x8 | x8 | x8 | x8 | x8 | x8 | x8 | x8 | x8 | x8 | x8 | x8 | x8 | x8 | x8 | x8 | x8 | x8 | x8 | %178
 x8 | x8 | x8 | x8 | x8 | x8 | x8 | x8 | x8 | x8 | x8 | x8 | x8 | x8 | x8 | x8 | x8 | x8 | x8 | %197
 x8 | x8 | x8 | x8 | x8 | x8 | x8 | x8 | x8 | x8 | x8 | x8 | x8 | x8 | x8 | x8 | x8 | x8 | x8 | %216
 x8 | x8 | x8 | x8 | x8 | x8 | x8 | x8 | x8 | x8 | x8 | x8 | x8 | x8 | x8 | x8 | x8 | x8 | x8 | %235
 x8 | x8 | x8 | x8 | x8 | x8 |[M:3/2] x12 | x12 | x12 | x12 | x12 | x12 | x12 | x12 | x12 | x12 | %251
 x12 | x12 | x12 | x12 | x12 | x12 | x12 | x12 | x12 | x12 | x12 | x12 | x12 | x12 | x12 | x12 | %267
 x12 | x12 | x12 | x12 | x12 | x12 | x12 | x12 | z2 z D3 z6 | x12 | x12 | x12 | x12 | x12 | x12 | %282
 x12 | x12 | x12 | x12 | x12 | x12 | x12 | x12 | x12 | x12 | x12 | x12 | x12 | x12 | x12 | x12 | %298
 x12 | z2 z D3 z6 | x12 | x12 | x12 | x12 | x12 | x12 | x12 | x12 | x12 | x12 | x12 | x12 | x12 | %313
 x12 | x12 | x12 | x12 | x12 | x12 | x12 | x12 | x12 |[M:2/4] x4 | x4 | x4 | x4 | x4 | x4 | x4 | %329
 x4 | x4 | x4 | x4 | x4 | x4 | x4 | x4 | x4 | x4 | x4 | x4 | x4 | x4 | x4 | x4 | x4 | x4 | x4 | %348
 x4 | x4 | x4 | x4 | x4 | x4 | x4 | x4 | x4 | x4 | x4 | x4 | x4 | x4 | x4 | x4 | x4 | x4 | x4 | %367
 x4 | x4 | x4 | x4 | x4 | x4 | x4 | x4 | x4 | x4 | x4 | x4 | x4 | x4 | x4 | x4 | x4 | x4 | x4 | %386
 x4 | x4 | x4 | x4 | x4 | x4 | x4 | x4 | x4 | x4 | x4 | x4 | x4 | x4 | x4 | x4 | x4 | x4 | x4 | %405
 x4 | x4 | x4 | x4 | x4 | x4 | x4 | x4 | x4 | x4 | x4 | x4 | x4 | x4 | x4 | x4 | x4 | x4 | x4 | %424
 x4 | x4 | x4 | x4 |[M:3/4] x6 | x6 | x6 | x6 | x6 | x6 | x6 | x6 | x6 | x6 | x6 | x6 | x6 | x6 | %442
 x6 | x6 | x6 | x6 | x6 | x6 | x6 | x6 | x6 | x6 | x6 | x6 | x6 | x6 | x6 | x6 | x6 | x6 | x6 | %461
 x6 | x6 | x6 | x6 | x6 | x6 | x6 | x6 | x6 | x6 | x6 | x6 | x6 | x6 | x6 | x6 | %477
 z2[K:bass] z/ A,G,/ A,2 |[K:treble] x6 | x6 | x6 | x6 | x6 | x6 | x6 | x6 | x6 | x6 | x6 | x6 | %490
 x6 | x6 | x6 | x6 | x6 | x6 | x6 | x6 | x6 | x6 | x6 | x6 | x6 | z2[K:bass] z/ A,G,/ A,2 | x6 | %505
[M:3/4][K:treble] x6 | x6 | x6 | x6 | x6 | x6 | x6 | x6 | x6 | x6 | x6 | x6 | x6 | x6 | x6 | x6 | %521
 x6 | x6 | x6 | x6 | x6 | x6 | x6 | x6 | x6 | x6 | x6 | x6 | x6 | x6 | x6 | x6 | x6 | x6 | x6 | %540
 x6 | x6 | x6 | x6 | x6 | x6 | x6 | x6 | x6 | x6 | x6 | x6 | x6 | x6 | x6 | x6 | x6 | x6 | x6 | %559
 x6 | x6 | x6 |[M:9/16] x9/2 | x9/2 | x9/2 | x9/2 | x9/2 | x9/2 | x9/2 | x9/2 | x9/2 | x9/2 | %572
 x9/2 | x9/2 | x9/2 | x9/2 | x9/2 | x9/2 | x9/2 | x9/2 | x9/2 | x9/2 | x9/2 | x9/2 | x9/2 | x9/2 | %586
 x9/2 | x9/2 | x9/2 | x9/2 | x9/2 | x9/2 | x9/2 | x9/2 | x9/2 | x9/2 | x9/2 | x9/2 | x9/2 | x9/2 | %600
 x9/2 | x9/2 | x9/2 | x9/2 | x9/2 | x9/2 | x9/2 | z3/2 z/ ^G- G3/2 | x9/2 | x9/2 | x9/2 | x9/2 | %612
 x9/2 | x9/2 | x9/2 | x9/2 | x9/2 | x9/2 | x9/2 | x9/2 | x9/2 | x9/2 | x9/2 | x9/2 | x9/2 | x9/2 | %626
 x9/2 | x9/2 | x9/2 | x9/2 | x9/2 | x9/2 | x9/2 | x9/2 | x9/2 | x9/2 | x9/2 | x9/2 | x9/2 | x9/2 | %640
 x9/2 | x9/2 | x9/2 | x9/2 | x9/2 | x9/2 | x9/2 | x9/2 | x9/2 | x9/2 | x9/2 | x9/2 | x9/2 | x9/2 | %654
 x9/2 | z3/2 z/ ^G- G3/2 | x9/2 | x9/2 | x9/2 | x9/2 | x9/2 | x9/2 | x9/2 | x9/2 | x9/2 | x9/2 | %666
 x9/2 | x9/2 | x9/2 | x9/2 | x9/2 | x9/2 | x9/2 | x9/2 | x9/2 | x9/2 | x9/2 | x9/2 | x9/2 | x9/2 | %680
 x9/2 | x9/2 | x9/2 | x9/2 | x9/2 | x9/2 | x9/2 | x9/2 | x9/2 | x9/2 | x9/2 | x9/2 | x9/2 | x9/2 | %694
 x9/2 | x9/2 | x9/2 | x9/2 | z3/2 A3/2 z3/2 | z3/2 A3/2 z3/2 | z3/2 ^G3/2 z3/2 | z3/2 A3/2 z3/2 | %702
 x9/2 | z3/2 z/ c- c3/2 | x9/2 | x9/2 | x9/2 | x9/2 | x9/2 | x9/2 | x9/2 | x9/2 | x9/2 | x9/2 | %714
 x9/2 | x9/2 | x9/2 | x9/2 | x9/2 | x9/2 | x9/2 | x9/2 | x9/2 | x9/2 | x9/2 | x9/2 | x9/2 | x9/2 | %728
 x9/2 | x9/2 | x9/2 | x9/2 | x9/2 | x9/2 | x9/2 | x9/2 | x9/2 | x9/2 | x9/2 | x9/2 | x9/2 | x9/2 | %742
 x9/2 | x9/2 | x9/2 | x9/2 | z3/2 A3/2 z3/2 | z3/2 A3/2 z3/2 | z3/2 ^G3/2 z3/2 | z3/2 A3/2 z3/2 | %750
 x9/2 | z3/2 z/ c- c3/2 | x9/2 | x9/2 |] %754
V:4
 [D,,-D,]2 D,,/4D,/4E,/4F,/4G,/4A,/4B,/4C/4 D4- | D4- D>CB,>A, | B,4- B,>E,F,>G, | %3
 A,4- A,>E,C,>A,, | D,2- D,/C,/4B,,/4A,,/4G,,/4F,,/4E,,/4 D,,>D,E,>F, | %5
 G,, z z2 z z/ G,,/ G,,/4F,,/4G,,/4F,,/4G,,/4F,,/4E,,/ | B,,4- B,,>B,,C,>D, | %7
 (9:8:4^G,,3/2E,/4F,/4^G,/4A,>B, C>DB,>A, | E3/2D/4C/4 B,>D ^G,>B, E,>G, | %9
 F,,2- (9:8:4F,,3/2F,/4E,/4D,/4 C,>E,A,,>C, | (9:8:4D,,3/2A,,/4B,,/4C,/4 D,2- D,>D,C,>B,, | %11
 C,/E,/D,/C,/ B,,/C,/A,, E,2 E,,2 | A,,2- A,,/B,,/4C,/4D,/4E,/4F,/4G,/4 A,2- A,/>B,/C/4D/4E/4F/4 | %13
 G4- G/>A,/B,/4C/4D/4E/4 F2- | %14
 F2- (9:8:4F3/2A/4^G/4F/4 G2- G/4A,/4B,/4=C/4[I:staff -1] D/4E/4F/4G/4 | %15
 (9:8:4A3/2G/4=F/4E/4 F/G/A/F/[I:staff +1]{E} ^D4- | (9:8:4D3/2=D/4=C/4B,/4 C2 B,2 E2- | E4 z2 z2 | %18
 [D,,-D,]2 D,,/4D,/4E,/4F,/4G,/4A,/4B,/4C/4 D4- | D4- D>CB,>A, | B,4- B,>E,F,>G, | %21
 A,4- A,>E,C,>A,, | D,2- D,/C,/4B,,/4A,,/4G,,/4F,,/4E,,/4 D,,>D,E,>F, | %23
 G,, z z2 z z/ G,,/ G,,/4F,,/4G,,/4F,,/4G,,/4F,,/4E,,/ | B,,4- B,,>B,,C,>D, | %25
 (9:8:4^G,,3/2E,/4F,/4^G,/4A,>B, C>DB,>A, | E3/2D/4C/4 B,>D ^G,>B, E,>G, | %27
 F,,2- (9:8:4F,,3/2F,/4E,/4D,/4 C,>E,A,,>C, | (9:8:4D,,3/2A,,/4B,,/4C,/4 D,2- D,>D,C,>B,, | %29
 C,/E,/D,/C,/ B,,/C,/A,, E,2 E,,2 | A,,2- A,,/B,,/4C,/4D,/4E,/4F,/4G,/4 A,2- A,/>B,/C/4D/4E/4F/4 | %31
 G4- G/>A,/B,/4C/4D/4E/4 F2- | %32
 F2- (9:8:4F3/2A/4^G/4F/4 G2- G/4A,/4B,/4=C/4[I:staff -1] D/4E/4F/4G/4 | %33
 (9:8:4A3/2G/4=F/4E/4 F/G/A/F/[I:staff +1]{E} ^D4- | (9:8:4D3/2=D/4=C/4B,/4 C2 B,2 E2 | %35
[M:9/8] E2 z z3 z3 | z9 | z9 | z9 | z9 | z9 |[I:staff -1] F^G/F/E/F/ GA/G/F/G/ AG/F/E/D/ | %42
[I:staff +1] CC,E, F,B,,D, E,A,,C, | D,E,/D,/C,/B,,/ E,A,,C, D,^G,,B,, | %44
 D,E,/D,/C,/B,,/ D,D,,D, E,E,,E, | F,C,A,, F,,F,F,, ^G,,^G,G,, | %46
 A,,B,,/A,,/^G,,/A,,/ B,,C,/B,,/A,,/B,,/ C,D,/C,/B,,/C,/ | D,F,A, D6- | DCE FB,D EA,C | %49
 F,A,^G, A,C,D, E,2 E,, | [C,E,A,]2 z B,CD B,CD | %51
 z/ A,,/B,,/C,/D,/E,/ F,/G,/A,/B,/[I:staff -1]C/D/ E/F/G/A/B/[I:staff +1] z/ | %52
[I:staff -1] A2[I:staff +1] z EFG EFG | A,2 z z3 z3 | C2 z z3 z3 | %55
 D,,/E,,/F,,/G,,/A,,/B,,/ C,/D,/E,/F,/G,/A,/ B,/[I:staff -1]=C/D/E/F |[I:staff +1] D2 z z3 D2 z | %57
 C2 z z3 C2 z | B,2 z z3 B,2 z | A,2 C A,2 D G,2 C | %60
 D2 z[I:staff -1] ^G2[I:staff +1] z[I:staff -1] ^A2[I:staff +1] z | B,2 z z3 A,2 z | %62
 G,2 z z3[I:staff -1] F2[I:staff +1] z |[I:staff -1] E[I:staff +1]G,B, =CF,A, B,E,G, | %64
 A,B,/A,/G,/F,/ B,E,G, A,^D,F, | G,/F,/E,/^D,/E,/G,/ A,,/F,/E,/D,/E,/G,/ G,,/F,/E,/D,/E,/G,/ | %66
 =C,/F,/ A,2- A,G,/F,/E,/D,/ C,/^D,/ F,2- | %67
 F, z/ E,/F,/G,/ A,/B,/A,/G,/F,/E,/ ^D,/B,,/C,/D,/E,/F,/ | %68
 G,/E,/F,/G,/A,/B,/ =C/D/C/B,/C/A,/ B,2 B,, | %69
 E,,2 z[I:staff -1] F/E/^D/C/[I:staff +1]B,/A,/ G,/F,/E,/D,/C,/B,,/ | A,,C,E, A,E,A, CD/C/B,/A,/ | %71
[K:treble] DA,D FDF AB/A/G/F/ | GA/G/F/E/ FG/F/E/D/ EF/E/D/C/ | DE/D/C/B,/ EF/E/D/C/ DE/D/C/B,/ | %74
 CD/C/B,/^A,/ DE/D/C/B,/ CD/C/B,/A,/ |[K:bass] B,F,A, G,F,E, D,F,E, | %76
 F,3- F,E,/D,/C,/B,,/ ^A,,/B,,/C,/B,,/A,,/^G,,/ | F,,^A,,D, F,B,D E^A,C | DE/D/C/B,/ E^A,C D^G,B, | %79
 CDE D/E/D/E/D/E/ C/D/C/D/C/D/ | B,3- B,A,/G,/F,/E,/ ^D,/E,/F,/E,/D,/C,/ | B,,^D,F, z EG A^DF | %82
 GA/G/F/E/ A^DF GCE | FGA G/A/G/A/G/A/ F/G/F/G/F/G/ | E z z E^A,C D^G,B, | %85
 CD/C/B,/^A,/ D^G,B, CF,A, | B,/B,,/C,/D,/E,/F,/ G,/A,/G,/F,/G,/E,/ F,2 F,, | %87
 B,,3- B,,/-B,,/D,/F,/B,/^A,/ B,3- | B,F,/^G,/A,/B,/ C2 z [G,B,]2 z | [E,A,]2 z z3 A,3- | %90
 A,E,/F,/G,/A,/ B,2 z [F,A,]2 z | [D,G,]2 z z3 z3 | z3 B,,D,G, C,E,A, | D,A,=C B,A,G, F,A,G, | %94
 A,2 z[I:staff -1] F2[I:staff +1] z[I:staff -1] D2[I:staff +1] z | %95
 G,2 z[I:staff -1] E2[I:staff +1] z[I:staff -1] C2[I:staff +1] z | %96
 F,2 z[I:staff -1] D2[I:staff +1] z B,2 z | E,2 z[I:staff -1] C2[I:staff +1] z A,2 z | %98
 D,3- D,/E,/D,/=C,/B,,/A,,/ G,,/A,,/G,,/F,,/E,,/D,,/ | %99
 C,,3- C,,/D,/C,/B,,/A,,/G,,/ F,,/G,,/F,,/E,,/D,,/C,,/ | %100
 B,,,3- B,,,/C,/B,,/A,,/G,,/F,,/ E,,/F,,/E,,/D,,/C,,/B,,,/ | %101
 A,,,3- A,,,/B,,/A,,/G,,/F,,/E,,/ D,,/E,,/D,,/=C,,/B,,,/A,,,/ | %102
 G,,,/B,,,/=C,,/D,,/E,,/F,,/ G,,2 z B,2 z | A,2 z z3 A,2 z | G,2 z z3 G,2 z | G,2 z z3 C2 z | %106
 A,2 z z3[I:staff -1] [A,D]2[I:staff +1] z | z3 A,,2 z z3 | z3 z/ A,,/C,/E,/A,/C/ EDC- | %109
 C2 z z/ A,,/D,/F,/A,/C/ DCB,- | B,2 z z/ A,,/C,/E,/A,/B,/ CB,A,- | %111
 A,2 z/ z A,,/B,,/D,/E,/^G,/ B,A,G, | A,2 z z3 C2 z | D2 z z3 [DF]2 z | [B,D]2 z z3 [B,E]2 z | %115
 A,B,/C/D/E/ F2 z E2 z | ^DE/D/C/B,/ E2 z =D2 z | CD/C/B,/A,/ D2 z C2 z | %118
 B,C/B,/A,/B,/ CD/C/B,/C/ DC/B,/A,/G,/ | F,F,,A,, B,,E,,G,, A,,D,,F,, | %120
 G,,A,,/G,,/F,,/E,,/ A,,D,,F,, G,,C,,E,, | F,,G,,/F,,/E,,/D,,/ G,,G,,,G,, A,,A,,,A,, | %122
 B,,F,,D,, B,,,B,,B,,, C,,C,C,, | D,,E,,/D,,/C,,/D,,/ E,,F,,/E,,/D,,/E,,/ F,,G,,/F,,/E,,/F,,/ | %124
 G,,B,,D, G,6- | G,F,A, B,E,G, A,D,F, | B,,D,C, D,F,,G,, A,,G,,A,, | !fermata![D,,D,]8 z | %128
[M:4/4] z4 z2 z z | z2 A,,2 D,4- | D,2 A,,2 D,4- | D,6 C,2 | %132
 D,C,/B,,/ A,,/D,/F,,/A,,/ D,,2- D,,/A,,/B,,/C,/ | z F,A,C DA,DF- | FB,DF G z z2 | %135
 z G,B,^D EB,EG- | GCEG F4- | FDFA ^G2 z F- | FE/D/ E2 z A, z B, | z CEG F2 z E | %140
 ^D=C/B,/ CA,- A, A,2 F, | E,2 z ^G, A,=CA,F, | ^G,B,F,A, G,2 G,2- | G,B,A,=C A,4- | %144
 A,^G, A,2 B,E^D=D- | DB, =CE/^D/ E2 B,E- | E/A,/C/E/ D2 z/ E,/A,/C/[I:staff -1] E2 | %147
[I:staff +1] z A, B,2- B,B, C2- | CC[I:staff -1] D2- D-D E2- | E E2 E[I:staff +1] z A,2 A, | %150
 z B,E,A, z D,2 D,- | D,2 z =C B,A,B,D- | (9:8:4D3/2[I:staff -1]F/4E/4D/4 E2 D C2[I:staff +1] z | %153
 z2 A,,2 D,4- | D,2 A,,2 D,4- | D,6 C,2 | D,C,/B,,/ A,,/D,/F,,/A,,/ D,,2- D,,/A,,/B,,/C,/ | %157
 z F,A,C DA,DF- | FB,DF G z z2 | z G,B,^D EB,EG- | GCEG F4- | FDFA ^G2 z F- | FE/D/ E2 z A, z B, | %163
 z CEG F2 z E | ^D=C/B,/ CA,- A, A,2 F, | E,2 z ^G, A,=CA,F, | ^G,B,F,A, G,2 G,2- | G,B,A,=C A,4- | %168
 A,^G, A,2 B,E^D=D- | DB, =CE/^D/ E2 B,E- | E/A,/C/E/ D2 z/ E,/A,/C/[I:staff -1] E2 | %171
[I:staff +1] z A, B,2- B,B, C2- | CC[I:staff -1] D2- D-D E2- | E E2 E[I:staff +1] z A,2 A, | %174
 z B,E,A, z D,2 D,- | D,2 z =C B,A,B,D- | (9:8:4D3/2[I:staff -1]F/4E/4D/4 E2 D C2[I:staff +1] z | %177
 z2 C,2 E,2 A,2 | z2 C2 E4- | E2 D4 C2 | D z z2 z2 z F, | A,F,A,=C- CF, B,2- | B,-B,C^D E4- | %183
 E2 CF- FDB,E- | EC^A,C DCB,^G, | ^A,C^G,B, A,2 A,2- | A,^A,B,D B,4 | ^A, z z A, B, z z ^D | %188
 E z z ^D E z z2 | E,,E,=C,G,, E,,E,C,G,, | E,,E,D,G, C,B,,C,F, | B,,D,E,F, G,E,F,F,, | %192
 z2 z/ ^A,/B,/F,/ D,/B,,/D,/F,/ B,2 | z/ F,,/A,,/D,/ F,/A,/D/F/ z2 D,,2 | z2 z z/ D,/ G,4- | %195
 G, A,2 B,2 =C2 ^D, | E,3 B,, E,4- | E,A,/G,/ A,2 z D, z E, | z F,A,=C B,-B, z A, | %199
 ^G,=F,/E,/ F,D,- D, D,2 B,, | z B,,C,D, z C,D,=F, | z E,G,A, z =C,D,F, | G,3 ^G, A,3 ^A, | %203
 B,3 B, C3 C | D2 =C2 B,2 A,2 | G,2 =F,2 E,2 D,2 | z E, z =F,- F,E,/D,/ C,2 | z D,2 G,- G, F,2 E, | %208
 F,D,,F,,A,, D,3 z | z2 C,2 E,2 A,2 | z2 C2 E4- | E2 D4 C2 | D z z2 z2 z F, | A,F,A,=C- CF, B,2- | %214
 B,-B,C^D E4- | E2 CF- FDB,E- | EC^A,C DCB,^G, | ^A,C^G,B, A,2 A,2- | A,^A,B,D B,4 | %219
 ^A, z z A, B, z z ^D | E z z ^D E z z2 | E,,E,=C,G,, E,,E,C,G,, | E,,E,D,G, C,B,,C,F, | %223
 B,,D,E,F, G,E,F,F,, | z2 z/ ^A,/B,/F,/ D,/B,,/D,/F,/ B,2 | z/ F,,/A,,/D,/ F,/A,/D/F/ z2 D,,2 | %226
 z2 z z/ D,/ G,4- | G, A,2 B,2 =C2 ^D, | E,3 B,, E,4- | E,A,/G,/ A,2 z D, z E, | %230
 z F,A,=C B,-B, z A, | ^G,=F,/E,/ F,D,- D, D,2 B,, | z B,,C,D, z C,D,=F, | z E,G,A, z =C,D,F, | %234
 G,3 ^G, A,3 ^A, | B,3 B, C3 C | D2 =C2 B,2 A,2 | G,2 =F,2 E,2 D,2 | z E, z =F,- F,E,/D,/ C,2 | %239
 z D,2 G,- G, F,2 E, | F,D,,F,,A,, D,3 z |[M:3/2] z8 z2 z z | z2 D,2 E,2 F,2 G,2 E,2 | %243
 [D,F,]3 D,/F,/ G,D,/G,/ A,2 B,2 C2 | D2 B,2 F,2 G,4 ^G,2 | A,6- A,6- | A,2 DC D2 B,4 ^A,2 | %247
 B,,F,B,D CEDF EDCB, | EB,E,D, C,B,,A,,^G,, F,,E,,F,,G,, | A,,E,A,C B,DCE DCB,A, | %250
 z2 D,2 D2- D2 C4- | CCB,A, ^G,A, G,2 E,2 z A, | B,/4A,/4^G,/A, D2 C2 B,2 A,2 G,2 | %253
 A,,2 B,4 A,2 B,2 C2 | D,2 E4 D6- | D2 C4- C2 B,4- | B,2 ^G,2 B,2 A,4 G,2 | z2 C,2 E,2 A,4 z z | %258
 z2 D,2 E,2 F,2 G,2 E,2 | [D,F,]3 D,/F,/ G,D,/G,/ A,2 B,2 C2 | D2 B,2 F,2 G,4 ^G,2 | A,6- A,6- | %262
 A,2 DC D2 B,4 ^A,2 | B,,F,B,D CEDF EDCB, | EB,E,D, C,B,,A,,^G,, F,,E,,F,,G,, | %265
 A,,E,A,C B,DCE DCB,A, | z2 D,2 D2- D2 C4- | CCB,A, ^G,A, G,2 E,2 z A, | %268
 B,/4A,/4^G,/A, D2 C2 B,2 A,2 G,2 | A,,2 B,4 A,2 B,2 C2 | D,2 E4 D6- | D2 C4- C2 B,4- | %272
 B,2 ^G,2 B,2 A,4 G,2 | z2 C,2 E,2 A,4 z2 | z2 C,2 E,2 G,F, A,G,F,E, | %275
 F,3 A,/F,/ D,F,/D,/ B,,2{B,,} =C,3 A,, | B,,D,G,F, G,B,/G,/ E,G,/E,/ =C2 A,2 | %277
 B,3 A,/G,/ A,G,/F,/ G,4 ^G,2 | A,3 F, G,E, F,6 | G,-G,-G,E, F,D, E,6 | F,3 A, F,E, ^D,6 | %281
 E,2 F,2 G,2 =C,2 A,,2 B,,2 | E,3 E,/G,/ B,G,/B,/ E4 z2 | z C,/E,/ A,E,/A,/ CA,/C/ D4 z2 | %284
 z B,,/D,/ G,D,/G,/ B,G,/B,/ C z z2 z C/A,/ | F,A,/F,/ D,F,/D,/ B,,D,/B,,/ G,,2 E,2 D,2 | %286
 A,,C,E,G, F,E,D,A, D,=C,B,,A,, | G,,B,,D,F, E,D,C,G, C,B,,A,,G,, | %288
 F,,F,B,,A,, G,,F,,E,,E, A,,G,,F,,E,, | D,,A,,D,F, E,G,F,A, G,F,E,D, | z2 G,,2 G,2- G,2 F,4- | %291
 F,F,E,D, C,D, C,2 A,,2 z D, | E,/4D,/4C,/D, G,2 F,2 E,2 D,2 C,2 | D,,2 E,4 D,2 E,2 F,2 | %294
 G,,2 A,4 G,6- | G,2 F,4- F,2 E,4- | E,2 C,2 E,2 D,4 G,2 | F,6 F,4 z z | z2 C,2 E,2 G,F, A,G,F,E, | %299
 F,3 A,/F,/ D,F,/D,/ B,,2{B,,} =C,3 A,, | B,,D,G,F, G,B,/G,/ E,G,/E,/ =C2 A,2 | %301
 B,3 A,/G,/ A,G,/F,/ G,4 ^G,2 | A,3 F, G,E, F,6 | G,-G,-G,E, F,D, E,6 | F,3 A, F,E, ^D,6 | %305
 E,2 F,2 G,2 =C,2 A,,2 B,,2 | E,3 E,/G,/ B,G,/B,/ E4 z2 | z C,/E,/ A,E,/A,/ CA,/C/ D4 z2 | %308
 z B,,/D,/ G,D,/G,/ B,G,/B,/ C z z2 z C/A,/ | F,A,/F,/ D,F,/D,/ B,,D,/B,,/ G,,2 E,2 D,2 | %310
 A,,C,E,G, F,E,D,A, D,=C,B,,A,, | G,,B,,D,F, E,D,C,G, C,B,,A,,G,, | %312
 F,,F,B,,A,, G,,F,,E,,E, A,,G,,F,,E,, | D,,A,,D,F, E,G,F,A, G,F,E,D, | z2 G,,2 G,2- G,2 F,4- | %315
 F,F,E,D, C,D, C,2 A,,2 z D, | E,/4D,/4C,/D, G,2 F,2 E,2 D,2 C,2 | D,,2 E,4 D,2 E,2 F,2 | %318
 G,,2 A,4 G,6- | G,2 F,4- F,2 E,4- | E,2 C,2 E,2 D,4 G,2 | F,6 F,4 z2 |[M:2/4] z2 z z | %323
 D z [A,C] z | [F,A,] z [E,G,] z | A,3 A, | A, z z [C,E,A,] | [D,F,A,] z [E,G,A,] z | %328
 [F,A,] z [G,A,] z | F,E,/D,/ C,D, | A,A,, z [A,C] | DC B,A, | ^G,A, G,F, | E,F, E,D, | %334
 C,D, C,B,, | A,,B,, C,A,, | D,D,, D,B,, | C,A,, E,E,, | A,,3 z | D z [A,C] z | [F,A,] z [E,G,] z | %341
 A,3 A, | A, z z [C,E,A,] | [D,F,A,] z [E,G,A,] z | [F,A,] z [G,A,] z | F,E,/D,/ C,D, | %346
 A,A,, z [A,C] | DC B,A, | ^G,A, G,F, | E,F, E,D, | C,D, C,B,, | A,,B,, C,A,, | D,D,, D,B,, | %353
 C,A,, E,E,, | A,,3 z | A, z [G,C] z | [F,D] z [E,G,] z | D,B,,/C,/ D,E, | %358
 F,/E,/F,/G,/ F,/E,/D,/C,/ | B,,/A,,/G,,/F,,/ E,,/D,,/E,,/F,,/ | G,, G,2 F, | E, =C2 A, | %362
 B,/A,/B,/=C/ B,/A,/G,/F,/ | E,/B,/A,/G,/ B,,/A,/G,/F,/ | G,B, EC, | D,/A,/G,/F,/ A,,/G,/F,/E,/ | %366
 F,A, D,F, | G,/G/F/E/ B,/F/E/D/ | E,/E/D/C/ G,/D/C/B,/ | ^A,,D, E,F, | %370
 B,/B,,/C,/D,/ E,/F,/^G,/^A,/ | B,/A,/B,/D/ C/B,/A,/G,/ | F,A, F,D, | G,A,, B,,^D, | E,G,, A,,C, | %375
 D,E,, F,,^A,, | B,,/D,/C,/B,,/ C,/D,/E,/F,/ | G,F,/E,/ F,G, | A,G,/F,/ E,/D,/C,/B,,/ | %379
 A,,[I:staff -1][D=F] [CE][B,D] |[I:staff +1] A,,[I:staff -1][EG] [CE][A,C] | %381
[I:staff +1] A,,[=F,D] [E,C][D,B,] | A,,[E,G,] [C,E,][A,,C,] | [D,,D,] z [F,,^A,,C,] z | %384
 B,,F, B,A, | G,E F,^D | E,B,[I:staff -1] ED |[I:staff +1] CA B,^G | A,E AG | z F,, G,,A,, | %390
 D,,3 z | A, z [G,C] z | [F,D] z [E,G,] z | D,B,,/C,/ D,E, | F,/E,/F,/G,/ F,/E,/D,/C,/ | %395
 B,,/A,,/G,,/F,,/ E,,/D,,/E,,/F,,/ | G,, G,2 F, | E, =C2 A, | B,/A,/B,/=C/ B,/A,/G,/F,/ | %399
 E,/B,/A,/G,/ B,,/A,/G,/F,/ | G,B, EC, | D,/A,/G,/F,/ A,,/G,/F,/E,/ | F,A, D,F, | %403
 G,/G/F/E/ B,/F/E/D/ | E,/E/D/C/ G,/D/C/B,/ | ^A,,D, E,F, | B,/B,,/C,/D,/ E,/F,/^G,/^A,/ | %407
 B,/A,/B,/D/ C/B,/A,/G,/ | F,A, F,D, | G,A,, B,,^D, | E,G,, A,,C, | D,E,, F,,^A,, | %412
 B,,/D,/C,/B,,/ C,/D,/E,/F,/ | G,F,/E,/ F,G, | A,G,/F,/ E,/D,/C,/B,,/ | %415
 A,,[I:staff -1][D=F] [CE][B,D] |[I:staff +1] A,,[I:staff -1][EG] [CE][A,C] | %417
[I:staff +1] A,,[=F,D] [E,C][D,B,] | A,,[E,G,] [C,E,][A,,C,] | [D,,D,] z [F,,^A,,C,] z | %420
 B,,F, B,A, | G,E F,^D | E,B,[I:staff -1] ED |[I:staff +1] CA B,^G | A,E AG | z F,, G,,A,, | %426
 D,,3 z | z4 |[M:3/4] [DA]2 [EG]4 | F/G/A/ z/ z4 | GF EG A,C | DA, D,A,, F,,A,, | %432
 D,,D/B,/ CA, B,^G, | A,,A,/F,/ ^G,E, F,^D, | E,,D,/B,,/ C,A,, F,,^D, | E,E,, z4 | A,B, CE CA, | %437
 F,E, F,A, F,D, | B,,/^G,/A,/E,/ C,/B,,/C,/D,/ E,2- | E,D, E,=F, E,2 | [DA]2 [EG]4 | F/G/A/ z/ z4 | %442
 GF EG A,C | DA, D,A,, F,,A,, | D,,D/B,/ CA, B,^G, | A,,A,/F,/ ^G,E, F,^D, | %446
 E,,D,/B,,/ C,A,, F,,^D, | E,E,, z4 | A,B, CE CA, | F,E, F,A, F,D, | %450
 B,,/^G,/A,/E,/ C,/B,,/C,/D,/ E,2- | E,D, E,=F, E,2 | [A,E]2 [B,D]2 [CE]2 | %453
 (6:4:6^A,/B,/C/D/[I:staff -1]E/F/[I:staff +1] z4 | B,G C^D G,E | F,G FE DC | B,A, G,A, G,F, | %457
 E,D, C,D, C,B,, | ^A,,B,, E,G, F,F,, | B,,C, D,E, F,G, | A,F, G,E, ED | =CA, B,G, A,F, | %462
 ^DE A,=C F,B, | E,B,, E,,B,, E,D, | C,A,, D,E, F,D, | G,E, A,B, CA, | DB, EF ^GE | AB AG FE | %468
 [DA]2 [EG]4 | F/G/A/ z/ z4 | GE FD EC | DB, CA, B,^G, | A,E, G,C, E,A,, | C,,2 z2 z C, | %474
 D,E, F,A, F,D, | B,,A,, B,,D, B,,G,, | E,,/C,/D,/A,,/ F,,/E,,/F,,/G,,/ A,,A,,, | %477
 D,,/F,,/A,,/D,/- D,4 | [A,E]2 [B,D]2 [CE]2 | (6:4:6^A,/B,/C/D/[I:staff -1]E/F/[I:staff +1] z4 | %480
 B,G C^D G,E | F,G FE DC | B,A, G,A, G,F, | E,D, C,D, C,B,, | ^A,,B,, E,G, F,F,, | %485
 B,,C, D,E, F,G, | A,F, G,E, ED | =CA, B,G, A,F, | ^DE A,=C F,B, | E,B,, E,,B,, E,D, | %490
 C,A,, D,E, F,D, | G,E, A,B, CA, | DB, EF ^GE | AB AG FE | [DA]2 [EG]4 | F/G/A/ z/ z4 | GE FD EC | %497
 DB, CA, B,^G, | A,E, G,C, E,A,, | C,,2 z2 z C, | D,E, F,A, F,D, | B,,A,, B,,D, B,,G,, | %502
 E,,/C,/D,/A,,/ F,,/E,,/F,,/G,,/ A,,A,,, | D,,/F,,/A,,/D,/- !fermata!D,4 | z6 |[M:3/4] z2 DC D2- | %506
 D2 CB, C2 | D2 C2 D2- | D2 C2 DA, | D2 A,2 B,2 | G,2 E,4 | %511
 (3:2:2F,,2 D, (3:2:2E,,2 C, (3:2:2D,,2 D,- | D,B,, C,E, A,2 | z2 DC D2- | D2 CB, C2 | D2 C2 D2- | %516
 D2 C2 DA, | D2 A,2 B,2 | G,2 E,4 | (3:2:2F,,2 D, (3:2:2E,,2 C, (3:2:2D,,2 D,- | D,B,, C,E, A,2 | %521
 z6 | A,,B,, C,D, E,F, | G,2 z4 | ^A,,B,, C,D, E,C, | z2 [B,E]2 [G,B,]2 | z2 C4- | C2 B,2 ^A,2 | %528
 [F,B,]2 E,2 B,2- | B,2 E,2 [C,E,]2 | D,2 [E,G,]2 F,2- | F,2 E,2 C,2 | B,,4 (3B,,D,F, | %533
 B,2 A,G, F,E, | F,G,/A,/ G,F, E,D, | (3:2:2G,2 F, (3:2:2G,2 E, (3:2:2F,2 D, | %536
 (3:2:2A,2 E, (3:2:2A,,2 C, (3:2:2E,2 G, | F,2 [D,F,A,]2 G,2- | (3G,F,E, (3D,C,B,, (3C,B,,A,, | %539
 D,2 [B,,G,]2 G,2- | G,E, F,D, D,2 | z6 | A,,B,, C,D, E,F, | G,2 z4 | ^A,,B,, C,D, E,C, | %545
 z2 [B,E]2 [G,B,]2 | z2 C4- | C2 B,2 ^A,2 | [F,B,]2 E,2 B,2- | B,2 E,2 [C,E,]2 | D,2 [E,G,]2 F,2- | %551
 F,2 E,2 C,2 | B,,4 (3B,,D,F, | B,2 A,G, F,E, | F,G,/A,/ G,F, E,D, | %555
 (3:2:2G,2 F, (3:2:2G,2 E, (3:2:2F,2 D, | (3:2:2A,2 E, (3:2:2A,,2 C, (3:2:2E,2 G, | %557
 F,2 [D,F,A,]2 G,2- | (3G,F,E, (3D,C,B,, (3C,B,,A,, | D,2 [B,,G,]2 G,2- | G,E, F,D, !fermata!D,2 | %561
 z6 |[M:9/16] z9/2 | z9/2 | z9/2 | z9/2 | z9/2 | z9/2 | A,3/2- A,/[I:staff -1]C/E/ A/E/C/ | %569
[I:staff +1] A,/C/E/ G3/2 z3/2 | F/E/F/ B,3/2- B,/C/D/ | E/D/E/ A,3/2- A,/B,/C/ | %572
 D/B,/^G,/ E,/G,/B,/ D/C/B,/ | C/A,/B,/ C/^D/E/ F/G/A/ | G3/2 E3/2 ^A,3/2 | %575
 B,/C/D/ E/F/G/ A/B/=c/ | B3/2 G3/2 C3/2 | D,3/2- D,/F,/A,/ D/A,/F,/ | D,/F,/A,/ =C3/2 z3/2 | %579
 B,/A,/B,/ E,3/2- E,/F,/G,/ | A,/G,/A,/ D,3/2- D,/E,/F,/ | G,/E,/C,/ A,,/C,/E,/ G,/F,/E,/ | %582
 F,/D,/E,/ F,/G,/A,/ B,/C/D/ | C/B,/A,/ B,/A,/G,/ A,/G,/F,/ | G,/E,/F,/ G,/A,/B,/ C/D/E/ | %585
 D/C/B,/ C/B,/A,/ B,/A,/^G,/ | A,/^G,/F,/- F,/A,/C/ E/^D/C/ | ^D3/2 z3/2 z3/2 | %588
 E,3/2- E,/G,/B,/ D/C/B,/ | C3/2 z3/2 z3/2 | D,3/2 D3/2 C3/2 | B,,3/2 B,3/2 A,3/2 | %592
 G,,3/2[G,B,]3/2[F,A,]3/2 | E,3/2[EG]3/2[DF]3/2 | E3/2 z3/2 z3/2 | A,3/2 z3/2 z3/2 | %596
 z/ B, z3/2 z3/2 | z3/2 z3/2 A,3/2 | z3/2 z/ A,,/C,/ E,/A,/C/ | D,3/2 z/ ^G,,/B,,/ D,/F,/B,/ | %600
 C,3/2 z/ F,,/A,,/ C,/E,/A,/ | B,,3/2 z/ E,,/^G,,/ B,,/E,/^G,/ | A,,3/2- A,,/C,/E,/ A,/E,/C,/ | %603
 ^G,,3/2- G,,/C,/E,/ A,/E,/C,/ | F,,3/2- F,,/A,,/B,,/ =C,/B,,/A,,/ | %605
 E,,3/2- E,,/A,,/B,,/ =C,/B,,/A,,/ | ^D,,3/2 ^D,3/2 D,,3/2 | D,,3/2- D,,/E,,/F,,/ ^G,,/A,,/B,,/ | %608
 C,,3/2 D,,3/2 E,,3/2 | A,,3- A,,3/2 | z9/2 | z9/2 | z9/2 | z9/2 | z9/2 | z9/2 | %616
 A,3/2- A,/[I:staff -1]C/E/ A/E/C/ |[I:staff +1] A,/C/E/ G3/2 z3/2 | F/E/F/ B,3/2- B,/C/D/ | %619
 E/D/E/ A,3/2- A,/B,/C/ | D/B,/^G,/ E,/G,/B,/ D/C/B,/ | C/A,/B,/ C/^D/E/ F/G/A/ | %622
 G3/2 E3/2 ^A,3/2 | B,/C/D/ E/F/G/ A/B/=c/ | B3/2 G3/2 C3/2 | D,3/2- D,/F,/A,/ D/A,/F,/ | %626
 D,/F,/A,/ =C3/2 z3/2 | B,/A,/B,/ E,3/2- E,/F,/G,/ | A,/G,/A,/ D,3/2- D,/E,/F,/ | %629
 G,/E,/C,/ A,,/C,/E,/ G,/F,/E,/ | F,/D,/E,/ F,/G,/A,/ B,/C/D/ | C/B,/A,/ B,/A,/G,/ A,/G,/F,/ | %632
 G,/E,/F,/ G,/A,/B,/ C/D/E/ | D/C/B,/ C/B,/A,/ B,/A,/^G,/ | A,/^G,/F,/- F,/A,/C/ E/^D/C/ | %635
 ^D3/2 z3/2 z3/2 | E,3/2- E,/G,/B,/ D/C/B,/ | C3/2 z3/2 z3/2 | D,3/2 D3/2 C3/2 | %639
 B,,3/2 B,3/2 A,3/2 | G,,3/2[G,B,]3/2[F,A,]3/2 | E,3/2[EG]3/2[DF]3/2 | E3/2 z3/2 z3/2 | %643
 A,3/2 z3/2 z3/2 | z/ B, z3/2 z3/2 | z3/2 z3/2 A,3/2 | z3/2 z/ A,,/C,/ E,/A,/C/ | %647
 D,3/2 z/ ^G,,/B,,/ D,/F,/B,/ | C,3/2 z/ F,,/A,,/ C,/E,/A,/ | B,,3/2 z/ E,,/^G,,/ B,,/E,/^G,/ | %650
 A,,3/2- A,,/C,/E,/ A,/E,/C,/ | ^G,,3/2- G,,/C,/E,/ A,/E,/C,/ | F,,3/2- F,,/A,,/B,,/ =C,/B,,/A,,/ | %653
 E,,3/2- E,,/A,,/B,,/ =C,/B,,/A,,/ | ^D,,3/2 ^D,3/2 D,,3/2 | D,,3/2- D,,/E,,/F,,/ ^G,,/A,,/B,,/ | %656
 C,,3/2 D,,3/2 E,,3/2 | A,,3- A,,3/2 | C/D/E/ F,/E/D/ C/D/E/ | G,/E/D/ C/D/E/ A,/B,/C/ | %660
 D/F/A/ ^G/F/E/ D/C/B,/ | C/E/G/ F/E/D/ C/B,/A,/ | B,/C/D/ C/B,/A,/ B,/A,/^G,/ | %663
 A,/E/D/ C/B,/A,/ G,/F,/E,/ | D,3/2- D,/F,/A,/ D/ A,/F,/ | D,/F,/A,/ =C3/2 z3/2 | %666
 B,/A,/B,/ E,3/2- E,/F,/G,/ | A,/G,/A,/ D,3/2- D,/E,/F,/ | G,/E,/C,/ A,,/C,/E,/ G,/F,/E,/ | %669
 F,3/2 A,3/2 D,3/2 | G,/D/=C/ B,/A,/G,/ F,/E,/^D,/ | E,3/2 B,,3/2 ^G,3/2 | %672
 A,/E/D/ C/B,/A,/ ^G,/F,/=F,/ | F,3/2 z3/2 ^A,3/2 | B,3/2 E,3/2 F,3/2 | B,,3/2 E,3/2 z3/2 | %676
 A,,3/2 D,3/2 z3/2 | G,,3/2 E,3/2 D,3/2 | C,3/2 ^D,3/2 B,,3/2 | E,,3/2 z3/2 G,3/2- | %680
 G,3/2F,3/2C,3/2 | D,3/2 A,3/2 D3/2 | G,3 z3/2 | C,/D,/E,/ F,,/E,/D,/ C,/D,/E,/ | %684
 ^G,,/E,/D,/ C,/D,/E,/ ^A,,/B,,/C,/ | D,/F,/A,/ ^G,/F,/E,/ D,/C,/B,,/ | %686
 C,/E,/G,/ F,/E,/D,/ C,/B,,/A,,/ | D,3/2 D3/2 B,3/2 | ^G,/A,/B,/- B,/A,/G,/ F,/E,/D,/ | %689
 C,3/2 C3/2 A,3/2 | F,/^G,/A,/- A,/G,/F,/ E,/D,/C,/ | B,,3/2 B,3/2 ^G,3/2 | %692
 E,/F,/^G,/- G,/F,/E,/ D,/C,/B,,/ | A,,/B,,/C,/ B,,/A,/G,/ F,/G,/A,/ | %694
 C,/A,/G,/ F,/G,/A,/ D,/E,/F,/ | G,/B,/D/ C/B,/A,/ G,/F,/E,/ | F,/A,/=C/ B,/A,/G,/ F,/E,/D,/ | %697
 E,/F,/G,/ F,/E,/D,/ E,/D,/C,/ | D,3/2- D,/F,/A,/ D/A,/F,/ | C,3/2- C,/F,/A,/ D/A,/F,/ | %700
 B,,3/2- B,,/D,/E,/ =F,/E,/D,/ | A,,3/2- A,,/C,/E,/ =F,/E,/C,/ | ^G,,3/2 ^G,3/2 G,,3/2 | %703
 G,,3/2- G,,/A,,/B,,/ C,/D,/E,/ | F,,3/2 G,,3/2 A,,3/2 | D,,3 D,3/2 | C/D/E/ F,/E/D/ C/D/E/ | %707
 G,/E/D/ C/D/E/ A,/B,/C/ |[I:staff -1] D/F/A/ ^G/F/E/ D/C/B,/ | %709
 C/E/G/ F/E/D/[I:staff +1] C/B,/A,/ | B,/C/D/ C/B,/A,/ B,/A,/^G,/ | A,/E/D/ C/B,/A,/ G,/F,/E,/ | %712
 D,3/2- D,/F,/A,/ D/ A,/F,/ | D,/F,/A,/ =C3/2 z3/2 | B,/A,/B,/ E,3/2- E,/F,/G,/ | %715
 A,/G,/A,/ D,3/2- D,/E,/F,/ | G,/E,/C,/ A,,/C,/E,/ G,/F,/E,/ | F,3/2 A,3/2 D,3/2 | %718
 G,/D/=C/ B,/A,/G,/ F,/E,/^D,/ | E,3/2 B,,3/2 ^G,3/2 | A,/E/D/ C/B,/A,/ ^G,/F,/=F,/ | %721
 F,3/2 z3/2 ^A,3/2 | B,3/2 E,3/2 F,3/2 | B,,3/2 E,3/2 z3/2 | A,,3/2 E,3/2 z3/2 | %725
 C,3/2 ^D,3/2 B,,3/2 | C,3/2 ^D,3/2 B,,3/2 | E,,3/2 z3/2 G,3/2- | G,3/2 F,3/2 C,3/2 | %729
 D,3/2 A,3/2 D3/2 | G,3 z3/2 | C,/D,/E,/ F,,/E,/D,/ C,/D,/E,/ | %732
 ^G,,/E,/D,/ C,/D,/E,/ ^A,,/B,,/C,/ | D,/F,/A,/ ^G,/F,/E,/ D,/C,/B,,/ | %734
 C,/E,/G,/ F,/E,/D,/ C,/B,,/A,,/ | D,3/2 D3/2 B,3/2 | ^G,/A,/B,/- B,/A,/G,/ F,/E,/D,/ | %737
 C,3/2 C3/2 A,3/2 | F,/^G,/A,/- A,/G,/F,/ E,/D,/C,/ | B,,3/2 B,3/2 ^G,3/2 | %740
 E,/F,/^G,/- G,/F,/E,/ D,/C,/B,,/ | A,,/B,,/C,/ B,,/A,/G,/ F,/G,/A,/ | %742
 C,/A,/G,/ F,/G,/A,/ D,/E,/F,/ | G,/B,/D/ C/B,/A,/ G,/F,/E,/ | F,/A,/=C/ B,/A,/G,/ F,/E,/D,/ | %745
 E,/F,/G,/ F,/E,/D,/ E,/D,/C,/ | D,3/2- D,/F,/A,/ D/A,/F,/ | C,3/2- C,/F,/A,/ D/A,/F,/ | %748
 B,,3/2- B,,/D,/E,/ =F,/E,/D,/ | A,,3/2- A,,/C,/E,/ =F,/E,/C,/ | ^G,,3/2 ^G,3/2 G,,3/2 | %751
 G,,3/2- G,,/A,,/B,,/ C,/D,/E,/ | F,,3/2 G,,3/2 A,,3/2 | D,,3 !fermata!D,3/2 |] %754
V:5
 x8 | x8 | x8 | x8 | x8 | x8 | x8 | x8 | x8 | x8 | x8 | x8 | x8 | x8 | x8 | x8 | z2 ^C/A,/^D, E,4 | %17
 A,4- A,/4B,/4[I:staff -1]C/4D/4E/4F/4G/4F/4 E/4F/4G/4A/4B/4c/4d/4e/4 | x8 | x8 | x8 | x8 | x8 | %23
 x8 | x8 | x8 | x8 | x8 | x8 | x8 | x8 | x8 | x8 | x8 |[I:staff +1] z2 ^C/A,/^D, E,4 | %35
[M:9/8] A,2 z z3 z3 | x9 | x9 | x9 | x9 | x9 | x9 | x9 | x9 | x9 | x9 | x9 | x9 | x9 | x9 | %50
 A,,2 z B,3 B,3 | x9 |[I:staff -1] F2[I:staff +1] z E3 E3 | D,2 z z3 z3 | D,2 z z3 z3 | x9 | %56
 B,2 z B,,2 z B,2 z | B,2 z B,,2 z A,2 z | A,2 z G,,2 z G,2 z | G,2 z F,2 z E,2 z | D,2 z z3 C2 z | %61
 x9 | x9 | x9 | x9 | x9 | x9 | x9 | x9 | x9 | x9 |[K:treble] x9 | x9 | x9 | x9 |[K:bass] x9 | x9 | %77
 z3 F,6- | F,6- F,3- | F,6- F,3 | x9 | z3 B,6- | B,6- B,3- | B,6- B,3- | B,/E,/G,/B,/E/D/ z2 z4 | %85
 x9 | x9 | z3 z3 z D,B,, | E,3 z3 E,2 z | A,,3- A,,/A,,/=C,/E,/A,/^G,/ z C,A,, | D,2 z z3 D,2 z | %91
 G,,3- G,,/A,,/B,,/C,/D,/E,/ F,,3- | F,,/D,,/E,,/F,,/G,,/A,,/ B,,3 C,3 | D,3 z3 z3 | x9 | x9 | x9 | %97
 x9 | x9 | x9 | x9 | x9 | z3 z3 G,2 z | G,2 z F,,2 z F,2 z | F,2 z E,2 z D,2 z | %105
 C,2 z A,,2 z A,2 z | z3 A,,2 z z3 | x9 | x9 | x9 | x9 | x9 | A,2 z A,,2 z A,2 z | %113
 A,2 z A,,2 z A,2 z | A,2 z A,,2 z ^G,2 z | x9 | x9 | x9 | x9 | x9 | x9 | x9 | x9 | x9 | x9 | x9 | %126
 x9 | x9 |[M:4/4] x8 | D,,6 E,,2 | F,,6 D,,2 | G,,2 E,,2 A,,4 | x8 | D,4- D,2 z2 | G,4- G,A,G,F, | %135
 E,4- E,2 z2 | ^A,4- A,CA,F, | B,4- B,B, A,2 | ^G,3 E, F,2 G,2 | A,4- A,A, G,2 | F,2 E,2 F,2 ^D,2 | %141
 z E,, E,2- E,4- | E,4- E,3 E, | =F,2- F,2- F,F,E,^D, | E,4- E,4 | =F,2 ^F,2 z E,3 | %146
 F,2- F,/F,/E,/D,/ C,2- C,>A,, | D,3 ^D, E,3 ^E, | F,3 F, ^G,3 G, | A,2 G,2 F,2 E,2 | %150
 D,2 =C,2 B,,2 A,,2 | ^G,,^G, A,2 E,4 | A, A,,C,E, A,3 z | D,,6 E,,2 | F,,6 D,,2 | G,,2 E,,2 A,,4 | %156
 x8 | D,4- D,2 z2 | G,4- G,A,G,F, | E,4- E,2 z2 | ^A,4- A,CA,F, | B,4- B,B, A,2 | ^G,3 E, F,2 G,2 | %163
 A,4- A,A, G,2 | F,2 E,2 F,2 ^D,2 | z E,, E,2- E,4- | E,4- E,3 E, | =F,2- F,2- F,F,E,^D, | %168
 E,4- E,4 | =F,2 ^F,2 z E,3 | F,2- F,/F,/E,/D,/ C,2- C,>A,, | D,3 ^D, E,3 ^E, | F,3 F, ^G,3 G, | %173
 A,2 G,2 F,2 E,2 | D,2 =C,2 B,,2 A,,2 | ^G,,^G, A,2 E,4 | A, A,,C,E, A,3 x | A,,6 A,2 | G,6 G,2 | %179
 F,2 B,2 E,2 A,2 | DC/B,/ A,/D/F,/A,/ D,A,, D,2- | D,4 ^D,3 B,, | E,4- E,G,F,A, | %183
 G,B, ^A,2 B,2 G,2 | F,4- F,4- | F,4- F,3 F, | G,2- G,2- G,G,F,^E, | F,G,F,E, ^D,=CB,=A, | %188
 G,A,G,F, E,G,,A,,B,, | x8 | x8 | x8 | B,,6 z2 | x8 | G,,6 G,,2 | =C,2 B,,2 A,,2 B,,2 | %196
 E,B,, E,,3 C,D,B,, | C,3 A,, B,,2 C,2 | D,4- D,D, =C,2 | B,,2 A,,2 B,,2 ^G,,2 | A,,4 A,,4 | %201
 A,,4 A,,4 | x8 | x8 | x8 | x8 | C,2 D,2 A,,3 G,, | F,,2 G,,E, C,D, A,,2 | E, D,,3- D,,3 z | %209
 A,,6 A,2 | G,6 G,2 | F,2 B,2 E,2 A,2 | DC/B,/ A,/D/F,/A,/ D,A,, D,2- | D,4 ^D,3 B,, | %214
 E,4- E,G,F,A, | G,B, ^A,2 B,2 G,2 | F,4- F,4- | F,4- F,3 F, | G,2- G,2- G,G,F,^E, | %219
 F,G,F,E, ^D,=CB,=A, | G,A,G,F, E,G,,A,,B,, | x8 | x8 | x8 | B,,6 z2 | x8 | G,,6 G,,2 | %227
 =C,2 B,,2 A,,2 B,,2 | E,B,, E,,3 C,D,B,, | C,3 A,, B,,2 C,2 | D,4- D,D, =C,2 | %231
 B,,2 A,,2 B,,2 ^G,,2 | A,,4 A,,4 | A,,4 A,,4 | x8 | x8 | x8 | x8 | C,2 D,2 A,,3 G,, | %239
 F,,2 G,,E, C,D, A,,2 | E, !fermata!D,,3- D,,3 x |[M:3/2] x12 | D,,6 z2 z4 | x12 | x12 | %245
 z2 A,,2 B,,2 C,2 D,C,B,,A,, | D,6 G,2 E,2 F,2 | x12 | x12 | x12 | x12 | z6 z2 z2 F,2 | %252
 D,6 D,2 C,2 B,,2 | A,4 ^G,2 =G,2 F,2 E,2 | D4 C4 B,2 A,2 | ^G,2 A,2 G,2 F,2 G,2 A,2 | %256
 ^G,2 E,2 D,2 C,2 D,2 E,2 | A,,6- A,,4 z z | D,,6 z2 z4 | x12 | x12 | z2 A,,2 B,,2 C,2 D,C,B,,A,, | %262
 D,6 G,2 E,2 F,2 | x12 | x12 | x12 | x12 | z6 z2 z2 F,2 | D,6 D,2 C,2 B,,2 | %269
 A,4 ^G,2 =G,2 F,2 E,2 | D4 C4 B,2 A,2 | ^G,2 A,2 G,2 F,2 G,2 A,2 | ^G,2 E,2 D,2 C,2 D,2 E,2 | %273
 A,,6- A,,4 x2 | A,,6 z6 | x12 | x12 | x12 | x12 | x12 | x12 | x12 | E,,3 z z8 | x12 | x12 | x12 | %286
 x12 | x12 | x12 | x12 | x12 | z6 z2 z2 B,,2 | G,,6- G,,2 F,,2 E,,2 | D,4 C,2 =C,2 B,,2 A,,2 | %294
 G,4 F,4 E,2 D,2 | C,2 D,2 C,2 B,,2 C,2 D,2 | x12 | D,4 A,,2 D,4 z z | A,,6 z6 | x12 | x12 | x12 | %302
 x12 | x12 | x12 | x12 | E,,3 z z8 | x12 | x12 | x12 | x12 | x12 | x12 | x12 | x12 | %315
 z6 z2 z2 B,,2 | G,,6- G,,2 F,,2 E,,2 | D,4 C,2 =C,2 B,,2 A,,2 | G,4 F,4 E,2 D,2 | %319
 C,2 D,2 C,2 B,,2 C,2 D,2 | x12 | D,4 A,,2 D,4 x2 |[M:2/4] x4 | x4 | x4 | F,E,/D,/ C,D, | %326
 z2 A,,2- | A,,4- | A,,4- | A,,4 | x4 | x4 | x4 | x4 | x4 | x4 | x4 | x4 | x4 | x4 | x4 | %341
 F,E,/D,/ C,D, | z2 A,,2- | A,,4- | A,,4- | A,,4 | x4 | x4 | x4 | x4 | x4 | x4 | x4 | x4 | x4 | %355
 x4 | x4 | x4 | x4 | x4 | x4 | x4 | x4 | x4 | x4 | x4 | x4 | x4 | x4 | x4 | x4 | x4 | x4 | x4 | %374
 x4 | x4 | x4 | x4 | x4 | x4 | x4 | x4 | x4 | x4 | x4 | x4 | x4 | x4 | x4 | x4 | x4 | x4 | x4 | %393
 x4 | x4 | x4 | x4 | x4 | x4 | x4 | x4 | x4 | x4 | x4 | x4 | x4 | x4 | x4 | x4 | x4 | x4 | x4 | %412
 x4 | x4 | x4 | x4 | x4 | x4 | x4 | x4 | x4 | x4 | x4 | x4 | x4 | x4 | x4 | x4 |[M:3/4] x6 | x6 | %430
 x6 | x6 | x6 | x6 | x6 | x6 | x6 | x6 | z4 E,E,, | A,,6 | x6 | x6 | x6 | x6 | x6 | x6 | x6 | x6 | %448
 x6 | x6 | z4 E,E,, | A,,6 | x6 | x6 | x6 | x6 | x6 | x6 | x6 | x6 | x6 | x6 | x6 | x6 | x6 | x6 | %466
 x6 | x6 | x6 | x6 | x6 | x6 | x6 | x6 | x6 | x6 | x6 | D,,6 | x6 | x6 | x6 | x6 | x6 | x6 | x6 | %485
 x6 | x6 | x6 | x6 | x6 | x6 | x6 | x6 | x6 | x6 | x6 | x6 | x6 | x6 | x6 | x6 | x6 | x6 | %503
 !fermata!D,,6 | x6 |[M:3/4] D,4 B,2 | G,6 | [F,A,]2 [E,G,A,]2 [D,F,A,]2 | A,4 D,2 | z2 D,4- | %510
 D,2 C,B,, A,,G,, | F,,2 E,,2 D,,2 | A,,6 | D,4 B,2 | G,6 | [F,A,]2 [E,G,A,]2 [D,F,A,]2 | A,4 D,2 | %517
 z2 D,4- | D,2 C,B,, A,,G,, | F,,2 E,,2 D,,2 | A,,6 | x6 | x6 | x6 | x6 | D,2 G,2 E,2 | %526
 F,3 D, E,>C, | D,4 C,2 | B,,2 C,2 ^D,2 | E,2 C,2 A,,2 | D,,2 C,2 [^A,,C,]2 | B,,2 E,,2 F,,2 | x6 | %533
 x6 | x6 | x6 | x6 | x6 | x6 | D,2 G,,2 [A,,E,]2 | D,3 D, D,,2 | x6 | x6 | x6 | x6 | D,2 G,2 E,2 | %546
 F,3 D, E,>C, | D,4 C,2 | B,,2 C,2 ^D,2 | E,2 C,2 A,,2 | D,,2 C,2 [^A,,C,]2 | B,,2 E,,2 F,,2 | x6 | %553
 x6 | x6 | x6 | x6 | x6 | x6 | D,2 G,,2 [A,,E,]2 | D,3 D, D,,2 | x6 |[M:9/16] x9/2 | x9/2 | x9/2 | %565
 x9/2 | x9/2 | x9/2 | x9/2 | x9/2 | x9/2 | x9/2 | x9/2 | x9/2 | x9/2 | x9/2 | x9/2 | x9/2 | x9/2 | %579
 x9/2 | x9/2 | x9/2 | x9/2 | x9/2 | x9/2 | x9/2 | x9/2 | x9/2 | x9/2 | x9/2 | x9/2 | x9/2 | x9/2 | %593
 x9/2 | C3/2 z3/2 z3/2 | x9/2 | x9/2 | x9/2 | x9/2 | x9/2 | x9/2 | x9/2 | x9/2 | x9/2 | x9/2 | %605
 x9/2 | x9/2 | x9/2 | x9/2 | x9/2 | x9/2 | x9/2 | x9/2 | x9/2 | x9/2 | x9/2 | x9/2 | x9/2 | x9/2 | %619
 x9/2 | x9/2 | x9/2 | x9/2 | x9/2 | x9/2 | x9/2 | x9/2 | x9/2 | x9/2 | x9/2 | x9/2 | x9/2 | x9/2 | %633
 x9/2 | x9/2 | x9/2 | x9/2 | x9/2 | x9/2 | x9/2 | x9/2 | x9/2 | C3/2 z3/2 z3/2 | x9/2 | x9/2 | %645
 x9/2 | x9/2 | x9/2 | x9/2 | x9/2 | x9/2 | x9/2 | x9/2 | x9/2 | x9/2 | x9/2 | x9/2 | x9/2 | x9/2 | %659
 x9/2 | x9/2 | x9/2 | x9/2 | x9/2 | x9/2 | x9/2 | x9/2 | x9/2 | x9/2 | x9/2 | x9/2 | x9/2 | x9/2 | %673
 x9/2 | x9/2 | x9/2 | x9/2 | x9/2 | x9/2 | x9/2 | x9/2 | x9/2 | x9/2 | x9/2 | x9/2 | x9/2 | x9/2 | %687
 x9/2 | x9/2 | x9/2 | x9/2 | x9/2 | x9/2 | x9/2 | x9/2 | x9/2 | x9/2 | x9/2 | x9/2 | x9/2 | x9/2 | %701
 x9/2 | x9/2 | x9/2 | x9/2 | x9/2 | x9/2 | x9/2 | x9/2 | x9/2 | x9/2 | x9/2 | x9/2 | x9/2 | x9/2 | %715
 x9/2 | x9/2 | x9/2 | x9/2 | x9/2 | x9/2 | x9/2 | x9/2 | x9/2 | x9/2 | x9/2 | x9/2 | x9/2 | x9/2 | %729
 x9/2 | x9/2 | x9/2 | x9/2 | x9/2 | x9/2 | x9/2 | x9/2 | x9/2 | x9/2 | x9/2 | x9/2 | x9/2 | x9/2 | %743
 x9/2 | x9/2 | x9/2 | x9/2 | x9/2 | x9/2 | x9/2 | x9/2 | x9/2 | x9/2 | x9/2 |] %754
V:6
 x8 | x8 | x8 | x8 | x8 | x8 | x8 | x8 | x8 | x8 | x8 | x8 | x8 | x8 | x8 | x8 | x8 | x8 | x8 | %19
 x8 | x8 | x8 | x8 | x8 | x8 | x8 | x8 | x8 | x8 | x8 | x8 | x8 | x8 | x8 | x8 |[M:9/8] x9 | x9 | %37
 x9 | x9 | x9 | x9 | x9 | x9 | x9 | x9 | x9 | x9 | x9 | x9 | x9 | x9 | x9 | x9 | x9 | x9 | x9 | %56
 x9 | x9 | x9 | x9 | x9 | x9 | x9 | x9 | x9 | x9 | x9 | x9 | x9 | x9 | x9 |[K:treble] x9 | x9 | %73
 x9 | x9 |[K:bass] x9 | x9 | x9 | x9 | x9 | x9 | x9 | x9 | x9 | x9 | x9 | x9 | x9 | x9 | x9 | x9 | %91
 x9 | x9 | x9 | x9 | x9 | x9 | x9 | x9 | x9 | x9 | x9 | x9 | x9 | x9 | x9 | x9 | x9 | x9 | x9 | %110
 x9 | x9 | x9 | x9 | x9 | x9 | x9 | x9 | x9 | x9 | x9 | x9 | x9 | x9 | x9 | x9 | x9 | x9 | %128
[M:4/4] x8 | x8 | x8 | x8 | x8 | x8 | x8 | x8 | x8 | x8 | x8 | x8 | x8 | x8 | x8 | x8 | x8 | x8 | %146
 x8 | x8 | x8 | x8 | x8 | x8 | z A,,3- A,,3 z | x8 | x8 | x8 | x8 | x8 | x8 | x8 | x8 | x8 | x8 | %163
 x8 | x8 | x8 | x8 | x8 | x8 | x8 | x8 | x8 | x8 | x8 | x8 | x8 | z A,,3- A,,3 x | x8 | x8 | x8 | %180
 x8 | x8 | x8 | x8 | x8 | x8 | x8 | x8 | x8 | x8 | x8 | x8 | x8 | x8 | x8 | x8 | x8 | x8 | x8 | %199
 x8 | x8 | x8 | x8 | x8 | x8 | x8 | x8 | x8 | x8 | x8 | x8 | x8 | x8 | x8 | x8 | x8 | x8 | x8 | %218
 x8 | x8 | x8 | x8 | x8 | x8 | x8 | x8 | x8 | x8 | x8 | x8 | x8 | x8 | x8 | x8 | x8 | x8 | x8 | %237
 x8 | x8 | x8 | x8 |[M:3/2] x12 | x12 | x12 | x12 | x12 | x12 | x12 | x12 | x12 | x12 | x12 | x12 | %253
 x12 | x12 | x12 | x12 | x12 | x12 | x12 | x12 | x12 | x12 | x12 | x12 | x12 | x12 | x12 | x12 | %269
 x12 | x12 | x12 | x12 | x12 | x12 | x12 | x12 | x12 | x12 | x12 | x12 | x12 | x12 | x12 | x12 | %285
 x12 | x12 | x12 | x12 | x12 | x12 | x12 | x12 | x12 | x12 | x12 | x12 | z2 D,,8 z z | x12 | x12 | %300
 x12 | x12 | x12 | x12 | x12 | x12 | x12 | x12 | x12 | x12 | x12 | x12 | x12 | x12 | x12 | x12 | %316
 x12 | x12 | x12 | x12 | x12 | z2 D,,8 x2 |[M:2/4] x4 | x4 | x4 | x4 | x4 | x4 | x4 | x4 | x4 | %331
 x4 | x4 | x4 | x4 | x4 | x4 | x4 | x4 | x4 | x4 | x4 | x4 | x4 | x4 | x4 | x4 | x4 | x4 | x4 | %350
 x4 | x4 | x4 | x4 | x4 | x4 | x4 | x4 | x4 | x4 | x4 | x4 | x4 | x4 | x4 | x4 | x4 | x4 | x4 | %369
 x4 | x4 | x4 | x4 | x4 | x4 | x4 | x4 | x4 | x4 | x4 | x4 | x4 | x4 | x4 | x4 | x4 | x4 | x4 | %388
 x4 | x4 | x4 | x4 | x4 | x4 | x4 | x4 | x4 | x4 | x4 | x4 | x4 | x4 | x4 | x4 | x4 | x4 | x4 | %407
 x4 | x4 | x4 | x4 | x4 | x4 | x4 | x4 | x4 | x4 | x4 | x4 | x4 | x4 | x4 | x4 | x4 | x4 | x4 | %426
 x4 | x4 |[M:3/4] x6 | x6 | x6 | x6 | x6 | x6 | x6 | x6 | x6 | x6 | x6 | x6 | x6 | x6 | x6 | x6 | %444
 x6 | x6 | x6 | x6 | x6 | x6 | x6 | x6 | x6 | x6 | x6 | x6 | x6 | x6 | x6 | x6 | x6 | x6 | x6 | %463
 x6 | x6 | x6 | x6 | x6 | x6 | x6 | x6 | x6 | x6 | x6 | x6 | x6 | x6 | x6 | x6 | x6 | x6 | x6 | %482
 x6 | x6 | x6 | x6 | x6 | x6 | x6 | x6 | x6 | x6 | x6 | x6 | x6 | x6 | x6 | x6 | x6 | x6 | x6 | %501
 x6 | x6 | x6 | x6 |[M:3/4] x6 | x6 | x6 | x6 | x6 | x6 | x6 | x6 | x6 | x6 | x6 | x6 | x6 | x6 | %519
 x6 | x6 | x6 | x6 | x6 | x6 | x6 | x6 | x6 | x6 | x6 | x6 | x6 | x6 | x6 | x6 | x6 | x6 | x6 | %538
 x6 | x6 | x6 | x6 | x6 | x6 | x6 | x6 | x6 | x6 | x6 | x6 | x6 | x6 | x6 | x6 | x6 | x6 | x6 | %557
 x6 | x6 | x6 | x6 | x6 |[M:9/16] x9/2 | x9/2 | x9/2 | x9/2 | x9/2 | x9/2 | x9/2 | x9/2 | x9/2 | %571
 x9/2 | x9/2 | x9/2 | x9/2 | x9/2 | x9/2 | x9/2 | x9/2 | x9/2 | x9/2 | x9/2 | x9/2 | x9/2 | x9/2 | %585
 x9/2 | x9/2 | x9/2 | x9/2 | x9/2 | x9/2 | x9/2 | x9/2 | x9/2 | x9/2 | x9/2 | x9/2 | x9/2 | x9/2 | %599
 x9/2 | x9/2 | x9/2 | x9/2 | x9/2 | x9/2 | x9/2 | x9/2 | x9/2 | x9/2 | x9/2 | x9/2 | x9/2 | x9/2 | %613
 x9/2 | x9/2 | x9/2 | x9/2 | x9/2 | x9/2 | x9/2 | x9/2 | x9/2 | x9/2 | x9/2 | x9/2 | x9/2 | x9/2 | %627
 x9/2 | x9/2 | x9/2 | x9/2 | x9/2 | x9/2 | x9/2 | x9/2 | x9/2 | x9/2 | x9/2 | x9/2 | x9/2 | x9/2 | %641
 x9/2 | x9/2 | x9/2 | x9/2 | x9/2 | x9/2 | x9/2 | x9/2 | x9/2 | x9/2 | x9/2 | x9/2 | x9/2 | x9/2 | %655
 x9/2 | x9/2 | x9/2 | x9/2 | x9/2 | x9/2 | x9/2 | x9/2 | x9/2 | x9/2 | x9/2 | x9/2 | x9/2 | x9/2 | %669
 x9/2 | x9/2 | x9/2 | x9/2 | x9/2 | x9/2 | x9/2 | x9/2 | x9/2 | x9/2 | x9/2 | x9/2 | x9/2 | x9/2 | %683
 x9/2 | x9/2 | x9/2 | x9/2 | x9/2 | x9/2 | x9/2 | x9/2 | x9/2 | x9/2 | x9/2 | x9/2 | x9/2 | x9/2 | %697
 x9/2 | x9/2 | x9/2 | x9/2 | x9/2 | x9/2 | x9/2 | x9/2 | x9/2 | x9/2 | x9/2 | x9/2 | x9/2 | x9/2 | %711
 x9/2 | x9/2 | x9/2 | x9/2 | x9/2 | x9/2 | x9/2 | x9/2 | x9/2 | x9/2 | x9/2 | x9/2 | x9/2 | x9/2 | %725
 x9/2 | x9/2 | x9/2 | x9/2 | x9/2 | x9/2 | x9/2 | x9/2 | x9/2 | x9/2 | x9/2 | x9/2 | x9/2 | x9/2 | %739
 x9/2 | x9/2 | x9/2 | x9/2 | x9/2 | x9/2 | x9/2 | x9/2 | x9/2 | x9/2 | x9/2 | x9/2 | x9/2 | x9/2 | %753
 x9/2 |] %754

